!!!!SEGMENT: pl-wn--mus-iii-72-725-cim_sowinski-wojciech--vae-victis.krn
!!!cenid: 18xx:3579
!!!COM: Sowiński, Wojciech
!!!COM-rismID: pe30008543
!!!CDT: ~1803-1880/03/05
!!!CNT:
!!!OTL: Vae victis
!!!PDT: 1879
!!!AGN:
!!!SMS-siglum: PL-Wn
!!!SMS-shelfmark: Mus.III.72.725 Cim.
!!!SMS-shelfwork: W
!!!SMS-variant: PL-WN MUS.III-72-725:2-3
!!!SMS-altvar: PL-WN MUS.III-72-725:4
!!!NIFC-rismSourceID:
!!!NIFC-rismChildID:
!!!NIFC-islandoraID: none
!!!URL-pdf-islandora:
!!!URL-scan: https://polona.pl/item/vae-victis-spiew-tulaczy,NzA4OTI0ODQ/2 @EN{Scan on Polona} @PL{Skany w portalu Polona}
!!!ONB-nifc:
!!!AIN: 1 barit 1 bass 2 piano 2 soprn 1 tenor
!!!key: d
**kern	**kern	**dynam	**kern	**text	**dynam	**kern	**text	**dynam	**kern	**text	**dynam	**kern	**text	**dynam	**kern	**text	**dynam
*	*	*	*group1	*	*	*group1	*	*	*group1	*	*	*group1	*	*	*	*	*
*	*	*	*I""CHÓR	*	*	*I""CHÓR	*	*	*I""CHÓR	*	*	*I""CHÓR	*	*	*	*	*
*part7	*part6	*part6	*part5	*part5	*part5	*part4	*part4	*part4	*part3	*part3	*part3	*part2	*part2	*part2	*part1	*part1	*part1
*staff7	*staff6	*	*staff5	*staff5	*	*staff4	*staff4	*	*staff3	*staff3	*	*staff2	*staff2	*	*staff1	*staff1	*
*I"FORTEPIAN	*I"FORTEPIAN	*	*I"B	*	*	*I"B	*	*	*I"T	*	*	*I"S	*	*	*I"ŚPIEW SOPRANO	*	*
*Ipiano	*Ipiano	*	*Ibass	*	*	*Ibarit	*	*	*Itenor	*	*	*Isoprn	*	*	*Isoprn	*	*
*ICklav	*ICklav	*	*ICvox	*	*	*ICvox	*	*	*ICvox	*	*	*ICvox	*	*	*ICvox	*	*
*IGacmp	*IGacmp	*	*IGcoro	*	*	*IGcoro	*	*	*IGcoro	*	*	*IGcoro	*	*	*IGsolo	*	*
*clefF4	*clefG2	*	*clefF4	*	*	*clefG2	*	*	*clefG2	*	*	*clefG2	*	*	*clefG2	*	*
*	*	*	*	*	*	*ITrd8c12	*	*	*ITrd8c12	*	*	*	*	*	*	*	*
*k[b-]	*k[b-]	*	*k[b-]	*	*	*k[b-]	*	*	*k[b-]	*	*	*k[b-]	*	*	*k[b-]	*	*
*d:	*d:	*	*d:	*	*	*d:	*	*	*d:	*	*	*d:	*	*	*d:	*	*
*M4/4	*M4/4	*	*M4/4	*	*	*M4/4	*	*	*M4/4	*	*	*M4/4	*	*	*M4/4	*	*
*met(c)	*met(c)	*	*met(c)	*	*	*met(c)	*	*	*met(c)	*	*	*met(c)	*	*	*met(c)	*	*
=1	=1	=1	=1	=1	=1	=1	=1	=1	=1	=1	=1	=1	=1	=1	=1	=1	=1
*xywh-#2:297,250,2523,950	*xywh-#2:297,250,2523,950	*	*xywh-#2:297,250,2523,950	*	*	*	*	*	*	*	*	*xywh-#2:297,250,2523,950	*	*	*	*	*
*	*	*below	*	*	*	*	*	*	*	*	*	*	*	*	*	*	*
!	!LO:TX:a:t=Moderato	!LO:DY:rj	!	!	!	!	!	!	!	!	!	!	!	!	!	!	!
2D 2DD/	2dd 2d/	f	1ryy	.	.	1ryy	.	.	1ryy	.	.	1ryy	.	.	1r	.	.
2F#X 2FF#X^>/	4cc 4a 4d/	.	.	.	.	.	.	.	.	.	.	.	.	.	.	.	.
.	4cc 4a 4d/	.	.	.	.	.	.	.	.	.	.	.	.	.	.	.	.
=2	=2	=2	=2	=2	=2	=2	=2	=2	=2	=2	=2	=2	=2	=2	=2	=2	=2
2G 2GG/	2bn 2g 2d/	.	1ryy	.	.	1ryy	.	.	1ryy	.	.	1ryy	.	.	1r	.	.
2E 2EE/	2b-X 2g 2c/	.	.	.	.	.	.	.	.	.	.	.	.	.	.	.	.
=3	=3	=3	=3	=3	=3	=3	=3	=3	=3	=3	=3	=3	=3	=3	=3	=3	=3
*	*^	*	*	*	*	*	*	*	*	*	*	*	*	*	*	*	*
*	*	*xywh-#2:297,250,2523,950	*	*	*	*	*	*	*	*	*	*	*	*	*	*	*	*
2F 2FF/	2b- 2f/	2c\	.	1ryy	.	.	1ryy	.	.	1ryy	.	.	1ryy	.	.	1r	.	.
2G 2GG/	4e/	2c\	.	.	.	.	.	.	.	.	.	.	.	.	.	.	.	.
.	4a/	.	mf	.	.	.	.	.	.	.	.	.	.	.	.	.	.	.
=4	=4	=4	=4	=4	=4	=4	=4	=4	=4	=4	=4	=4	=4	=4	=4	=4	=4	=4
[2A [2AA\	[2a 2f 2d/	2ryy	.	1ryy	.	.	1ryy	.	.	1ryy	.	.	1ryy	.	.	1ryy	.	.
2A] 2AA\]	2a] 2e/	4d\	.	.	.	.	.	.	.	.	.	.	.	.	.	.	.	.
.	.	4c#X\	.	.	.	.	.	.	.	.	.	.	.	.	.	.	.	.
*	*v	*v	*	*	*	*	*	*	*	*	*	*	*	*	*	*	*	*
=5	=5	=5	=5	=5	=5	=5	=5	=5	=5	=5	=5	=5	=5	=5	=5	=5	=5
4AA 4AAA/	4a 4c#X 4A 4G/	.	1ryy	.	.	1ryy	.	.	1ryy	.	.	1ryy	.	.	2a/	Vae	.
4r	4r	.	.	.	.	.	.	.	.	.	.	.	.	.	.	.	f
!	!	!	!	!	!	!	!	!	!	!	!	!	!	!	!LO:TX:a:t=adlib&colon;	!	!
2r;	2r;	.	.	.	.	.	.	.	.	.	.	.	.	.	(8.ee\L	vic-	.
.	.	.	.	.	.	.	.	.	.	.	.	.	.	.	16cc#X\Jk)	.	.
.	.	.	.	.	.	.	.	.	.	.	.	.	.	.	4a;/	-tis!	.
=6	=6	=6	=6	=6	=6	=6	=6	=6	=6	=6	=6	=6	=6	=6	=6	=6	=6
!	!	!LO:DY:rj	!	!	!	!	!	!	!	!	!	!	!	!	!LO:TX:a:t=a tempo	!	!
(8D\L	2dd 2d/	mf	1ryy	.	.	1ryy	.	.	1ryy	.	.	1ryy	.	.	2dd^\	Po	.
8F\	.	.	.	.	.	.	.	.	.	.	.	.	.	.	.	.	.
8A\	.	.	.	.	.	.	.	.	.	.	.	.	.	.	.	.	.
8F\J)	.	.	.	.	.	.	.	.	.	.	.	.	.	.	.	.	.
.	(32qqd/LLL	.	.	.	.	.	.	.	.	.	.	.	.	.	.	.	.
.	32qqg/JJJ	.	.	.	.	.	.	.	.	.	.	.	.	.	.	.	.
(8D\L	(8ccn/L)	.	.	.	.	.	.	.	.	.	.	.	.	.	(8ccn\L	mo-	.
8G\	8b-/	.	.	.	.	.	.	.	.	.	.	.	.	.	8b-\J)	.	.
8A\	8a/	.	.	.	.	.	.	.	.	.	.	.	.	.	(8a\L	-jéj	.
8B-\J)	8g/J	.	.	.	.	.	.	.	.	.	.	.	.	.	8g\J)	.	.
=7	=7	=7	=7	=7	=7	=7	=7	=7	=7	=7	=7	=7	=7	=7	=7	=7	=7
(8D\L	[4f/)	.	1ryy	.	.	1ryy	.	.	1ryy	.	.	1ryy	.	.	(4.f/	klęs-	.
8F\	.	.	.	.	.	.	.	.	.	.	.	.	.	.	.	.	.
8A\	8aL 8f/]	.	.	.	.	.	.	.	.	.	.	.	.	.	.	.	.
8G\J	8cc#XJ 8e/	.	.	.	.	.	.	.	.	.	.	.	.	.	8e/)	.	.
8F\L	4dd 4d/	.	.	.	.	.	.	.	.	.	.	.	.	.	4d/	-ce,	.
8E\	.	.	.	.	.	.	.	.	.	.	.	.	.	.	.	.	.
8D\	8r	.	.	.	.	.	.	.	.	.	.	.	.	.	8r	.	.
8Cn\J)	8d/	.	.	.	.	.	.	.	.	.	.	.	.	.	8d/	Czy	.
!!LO:LB:g=original
=8	=8	=8	=8	=8	=8	=8	=8	=8	=8	=8	=8	=8	=8	=8	=8	=8	=8
*	*^	*	*	*	*	*	*	*	*	*	*	*	*	*	*	*	*
*xywh-#2:217,1174,2608,658	*xywh-#2:217,1174,2608,658	*xywh-#2:217,1174,2608,658	*	*xywh-#2:217,1174,2608,658	*	*	*	*	*	*	*	*	*	*	*	*xywh-#2:217,1174,2608,658	*	*
!	!	!	!LO:HP:a	!	!	!	!	!	!	!	!	!	!	!	!	!	!	!
8BB-^\L	4g/	4d\	<	1ryy	.	.	1ryy	.	.	1ryy	.	.	1ryy	.	.	4g/	to	.
8D\J	.	.	.	.	.	.	.	.	.	.	.	.	.	.	.	.	.	.
8AA^\L	4f#X/	2d\	.	.	.	.	.	.	.	.	.	.	.	.	.	4d/	z nad	.
!	!	!	!	!	!	!	!	!	!	!	!	!	!	!	!	!	!	!LO:HP:a
8D\J	.	.	.	.	.	.	.	.	.	.	.	.	.	.	.	.	.	<
8GG\L	4g/	.	.	.	.	.	.	.	.	.	.	.	.	.	.	4g/	Ne-	.
8G\	.	.	.	.	.	.	.	.	.	.	.	.	.	.	.	.	.	.
8D\	4b-/	4d\	[	.	.	.	.	.	.	.	.	.	.	.	.	8b-\	-wy	.
8G\J	.	.	.	.	.	.	.	.	.	.	.	.	.	.	.	8b-\	dzicz	[
*	*v	*v	*	*	*	*	*	*	*	*	*	*	*	*	*	*	*	*
=9	=9	=9	=9	=9	=9	=9	=9	=9	=9	=9	=9	=9	=9	=9	=9	=9	=9
*^	*	*	*	*	*	*	*	*	*	*	*	*	*	*	*	*	*
*	*xywh-#2:217,1174,2608,658	*	*	*	*	*	*	*	*	*	*	*	*	*	*	*	*	*
4A/	8AA\L	4.a 4.c#X/	.	1ryy	.	.	1ryy	.	.	1ryy	.	.	1ryy	.	.	2a^>/	sę-	.
.	8C#X\	.	.	.	.	.	.	.	.	.	.	.	.	.	.	.	.	.
4ryy	8E\	.	.	.	.	.	.	.	.	.	.	.	.	.	.	.	.	.
.	8G\J	8e/	.	.	.	.	.	.	.	.	.	.	.	.	.	.	.	.
.	.	.	.	.	.	.	.	.	.	.	.	.	.	.	.	(<16qqcc#X/LL	.	.
.	.	.	.	.	.	.	.	.	.	.	.	.	.	.	.	16qqbn/JJ	.	.
2AA/	2ryy	8a/L	.	.	.	.	.	.	.	.	.	.	.	.	.	4a/)	-pia	.
.	.	8a/	.	.	.	.	.	.	.	.	.	.	.	.	.	.	.	.
.	.	8bn/	.	.	.	.	.	.	.	.	.	.	.	.	.	4r	.	.
.	.	8cc#X/J	.	.	.	.	.	.	.	.	.	.	.	.	.	.	.	.
*v	*v	*	*	*	*	*	*	*	*	*	*	*	*	*	*	*	*	*
=10	=10	=10	=10	=10	=10	=10	=10	=10	=10	=10	=10	=10	=10	=10	=10	=10	=10
.	(32qqd/LLL	f	.	.	.	.	.	.	.	.	.	.	.	.	.	.	.
.	32qqf/JJJ	.	.	.	.	.	.	.	.	.	.	.	.	.	.	.	.
!	!	!	!	!	!	!	!	!	!	!	!	!	!	!	!	!	!LO:DY:a:rj
8DL 8DD\	2dd 2f 2d/)	.	1ryy	.	.	1ryy	.	.	1ryy	.	.	1ryy	.	.	4dd\	Wiel-	f
8F\	.	.	.	.	.	.	.	.	.	.	.	.	.	.	.	.	.
8A\	.	.	.	.	.	.	.	.	.	.	.	.	.	.	8.dd\	-bi	.
8F\J	.	.	.	.	.	.	.	.	.	.	.	.	.	.	.	.	.
.	.	.	.	.	.	.	.	.	.	.	.	.	.	.	16dd\	ty-	.
.	(<32qqd/LLL	<	.	.	.	.	.	.	.	.	.	.	.	.	.	.	.
.	32qqg/JJJ	.	.	.	.	.	.	.	.	.	.	.	.	.	.	.	.
8D\L	(8ccn\L)	.	.	.	.	.	.	.	.	.	.	.	.	.	(8ccn\L	-ra-	.
8G\	8b-X\	.	.	.	.	.	.	.	.	.	.	.	.	.	8b-X\J)	.	.
8A\	8a\	.	.	.	.	.	.	.	.	.	.	.	.	.	8a/	-na	.
8B-\J	8g\J	[	.	.	.	.	.	.	.	.	.	.	.	.	8g/	zwy-	.
=11	=11	=11	=11	=11	=11	=11	=11	=11	=11	=11	=11	=11	=11	=11	=11	=11	=11
8AL 8D\	4.f/)	.	1ryy	.	.	1ryy	.	.	1ryy	.	.	1ryy	.	.	(4.f/	-cięz-	.
8F\	.	.	.	.	.	.	.	.	.	.	.	.	.	.	.	.	.
8A\	.	.	.	.	.	.	.	.	.	.	.	.	.	.	.	.	.
8c#X\J	8e/	.	.	.	.	.	.	.	.	.	.	.	.	.	8e/)	.	.
4d 4A\	4f/	.	.	.	.	.	.	.	.	.	.	.	.	.	4f/	-cę,	.
4G#X 4F 4BBn^\	8d/L	.	.	.	.	.	.	.	.	.	.	.	.	.	4r	.	.
.	8dd/J	.	.	.	.	.	.	.	.	.	.	.	.	.	.	.	.
=12	=12	=12	=12	=12	=12	=12	=12	=12	=12	=12	=12	=12	=12	=12	=12	=12	=12
*	*	*	*	*	*	*	*	*	*	*	*	*	*	*	*	*	*
*^	*^	*	*	*	*	*	*	*	*	*	*	*	*	*	*	*	*
*	*	*	*^	*	*	*	*	*	*	*	*	*	*	*	*	*	*	*	*
*xywh-#2:217,1174,2608,658	*xywh-#2:217,1174,2608,658	*xywh-#2:217,1174,2608,658	*xywh-#2:217,1174,2608,658	*xywh-#2:217,1174,2608,658	*	*	*	*	*xywh-#2:217,1174,2608,658	*	*	*	*	*	*xywh-#2:217,1174,2608,658	*	*xywh-#2:217,1174,2608,658	*xywh-#2:217,1174,2608,658	*xywh-#2:217,1174,2608,658	*
2A 2F\	2Cn\	4f/	2ccn/	2cn\	<	1ryy	.	.	1ryy	.	.	1ryy	.	.	1ryy	.	.	4f/	Mię,	.
.	.	(<8e/L	.	.	.	.	.	.	.	.	.	.	.	.	.	.	.	8e/	zwy-	.
.	.	8f/J	.	.	.	.	.	.	.	.	.	.	.	.	.	.	.	8f/	-cię-	.
8C/L	2C\	8a/L	2ryy	2ryy	[	.	.	.	.	.	.	.	.	.	.	.	.	4a/	-żo-	.
8E/	.	8g/	.	.	.	.	.	.	.	.	.	.	.	.	.	.	.	.	.	.
8G/	.	8e/	.	.	.	.	.	.	.	.	.	.	.	.	.	.	.	8.g/	-ną,	.
8B-X/J	.	8g/J)	.	.	.	.	.	.	.	.	.	.	.	.	.	.	.	.	.	.
.	.	.	.	.	.	.	.	.	.	.	.	.	.	.	.	.	.	16g/	po-	.
*	*	*v	*v	*v	*	*	*	*	*	*	*	*	*	*	*	*	*	*	*	*
!!LO:LB:g=original
=13	=13	=13	=13	=13	=13	=13	=13	=13	=13	=13	=13	=13	=13	=13	=13	=13	=13	=13
*xywh-#2:223,1790,2592,626	*xywh-#2:223,1790,2592,626	*xywh-#2:223,1790,2592,626	*	*xywh-#2:223,1790,2592,626	*	*	*xywh-#2:223,1790,2592,626	*	*	*xywh-#2:223,1790,2592,626	*	*	*xywh-#2:223,1790,2592,626	*	*	*xywh-#2:223,1790,2592,626	*	*
8C/L	2C\	2g/	.	1ryy	.	.	1ryy	.	.	1ryy	.	.	1ryy	.	.	2g^>/	-tę-	.
8E/	.	.	.	.	.	.	.	.	.	.	.	.	.	.	.	.	.	.
8B-/	.	.	.	.	.	.	.	.	.	.	.	.	.	.	.	.	.	.
8E/J	.	.	.	.	.	.	.	.	.	.	.	.	.	.	.	.	.	.
4A\	4F\	4f/	.	.	.	.	.	.	.	.	.	.	.	.	.	4f/	-pia?	.
4FF/	4ryy	8r	.	.	.	.	.	.	.	.	.	.	.	.	.	8r	.	.
.	.	8a/	.	.	.	.	.	.	.	.	.	.	.	.	.	8a/	To	.
*v	*v	*	*	*	*	*	*	*	*	*	*	*	*	*	*	*	*	*
=14	=14	=14	=14	=14	=14	=14	=14	=14	=14	=14	=14	=14	=14	=14	=14	=14	=14
!	!	!LO:DY:rj	!	!	!	!	!	!	!	!	!	!	!	!	!	!	!
8AA\L	2.cc#X 2.a 2.e/	sf	1ryy	.	.	1ryy	.	.	1ryy	.	.	1ryy	.	.	(4.cc#X^\	Fran-	.
8C#X\	.	.	.	.	.	.	.	.	.	.	.	.	.	.	.	.	.
8E\	.	.	.	.	.	.	.	.	.	.	.	.	.	.	.	.	.
8A\J	.	.	.	.	.	.	.	.	.	.	.	.	.	.	8a\)	.	.
4AA/	.	.	.	.	.	.	.	.	.	.	.	.	.	.	4a\	-cya!	.
8.AL 8.AA\	8.cc#L 8.a 8.e/	.	.	.	.	.	.	.	.	.	.	.	.	.	4r	.	.
16GJk 16GG\	16cc#Jk 16a 16e/	.	.	.	.	.	.	.	.	.	.	.	.	.	.	.	.
=15	=15	=15	=15	=15	=15	=15	=15	=15	=15	=15	=15	=15	=15	=15	=15	=15	=15
4F\	2.dd 2.a 2.f^\	.	1ryy	.	.	1ryy	.	.	1ryy	.	.	1ryy	.	.	4dd^\	bia-	.
8A\L	.	.	.	.	.	.	.	.	.	.	.	.	.	.	8a/	-da	.
8F\J	.	.	.	.	.	.	.	.	.	.	.	.	.	.	8a/	mi,	.
4D\	.	.	.	.	.	.	.	.	.	.	.	.	.	.	4.a/	bia-	.
!	!	!LO:DY:rj	!	!	!	!	!	!	!	!	!	!	!	!	!	!	!
8.dL 8.D\	8.ddL 8.a 8.f/	sf	.	.	.	.	.	.	.	.	.	.	.	.	.	.	.
.	.	.	.	.	.	.	.	.	.	.	.	.	.	.	8a/	-da!	.
16dJk 16D\	16ddJk 16a 16f/	.	.	.	.	.	.	.	.	.	.	.	.	.	.	.	.
=16	=16	=16	=16	=16	=16	=16	=16	=16	=16	=16	=16	=16	=16	=16	=16	=16	=16
*^	*	*	*	*	*	*	*	*	*	*	*	*	*	*	*	*	*
*	*xywh-#2:223,1790,2592,626	*	*	*	*	*	*	*	*	*	*	*	*	*	*	*	*	*
4A/	2A 2AA\	2.ee 2.cc#X 2.a 2.e/	sf	1ryy	.	.	1ryy	.	.	1ryy	.	.	1ryy	.	.	4ee^\	Ty,	.
8E/L	.	.	.	.	.	.	.	.	.	.	.	.	.	.	.	8a/	mo-	.
8C#X/J	.	.	.	.	.	.	.	.	.	.	.	.	.	.	.	8a/	-ją	.
4AA/	2ryy	.	.	.	.	.	.	.	.	.	.	.	.	.	.	4a/	sio-	.
8.AL 8.AA\	.	8.eeL 8.cc# 8.a 8.e\	<	.	.	.	.	.	.	.	.	.	.	.	.	8a/	-strą?	.
.	.	.	.	.	.	.	.	.	.	.	.	.	.	.	.	8a/	szy-	.
16AJk 16AA\	.	16eeJk 16cc# 16a 16e\	[[	.	.	.	.	.	.	.	.	.	.	.	.	.	.	.
*v	*v	*	*	*	*	*	*	*	*	*	*	*	*	*	*	*	*	*
=17	=17	=17	=17	=17	=17	=17	=17	=17	=17	=17	=17	=17	=17	=17	=17	=17	=17
8DD/L	4.ff 4.a 4.f\	>	1ryy	.	.	1ryy	.	.	1ryy	.	.	1ryy	.	.	(4.ff^\	-ders-	.
8AA/	.	.	.	.	.	.	.	.	.	.	.	.	.	.	.	.	.
8D/	.	.	.	.	.	.	.	.	.	.	.	.	.	.	.	.	.
8AA/J	8ee 8cc#X 8a 8g\	.	.	.	.	.	.	.	.	.	.	.	.	.	8ee\)	-two!	.
4DD/	4dd 4a 4f\	]	.	.	.	.	.	.	.	.	.	.	.	.	4dd\	.	.
4r	8.a\L	.	.	.	.	.	.	.	.	.	.	.	.	.	4r	.	.
.	16a\Jk	.	.	.	.	.	.	.	.	.	.	.	.	.	.	.	.
!!LO:PB:g=original
=18	=18	=18	=18	=18	=18	=18	=18	=18	=18	=18	=18	=18	=18	=18	=18	=18	=18
!	!	!LO:DY:rj	!	!	!	!	!	!	!	!	!	!	!	!	!	!	!LO:DY:a:rj
*xywh-#2:217,2406,2581,642	*xywh-#2:217,2406,2581,642	*xywh-#2:217,2406,2581,642	*xywh-#2:217,2406,2581,642	*	*	*xywh-#2:217,2406,2581,642	*	*	*xywh-#2:217,2406,2581,642	*	*	*xywh-#2:217,2406,2581,642	*	*	*xywh-#2:217,2406,2581,642	*xywh-#2:217,2406,2581,642	*
2D 2DD/	4.ff 4.a 4.f/	f	1ryy	.	.	1ryy	.	.	1ryy	.	.	1ryy	.	.	2ff\	Przesz-	f
*	*ped	*	*	*	*	*	*	*	*	*	*	*	*	*	*	*	*
.	.	.	.	.	.	.	.	.	.	.	.	.	.	.	.	.	.
.	8ff 8a 8f/	.	.	.	.	.	.	.	.	.	.	.	.	.	.	.	.
4A 4AA\	8.eeL 8.a 8.e/	.	.	.	.	.	.	.	.	.	.	.	.	.	4ee\	-łość	.
*	*Xped	*	*	*	*	*	*	*	*	*	*	*	*	*	*	*	*
.	.	.	.	.	.	.	.	.	.	.	.	.	.	.	.	.	.
*	*ped	*	*	*	*	*	*	*	*	*	*	*	*	*	*	*	*
.	16eeK 16a 16e/	.	.	.	.	.	.	.	.	.	.	.	.	.	.	.	.
4AA 4AAA/	8.ee 8.a 8.e/	.	.	.	.	.	.	.	.	.	.	.	.	.	4ee\	o	.
.	16eeJk 16a 16e/	.	.	.	.	.	.	.	.	.	.	.	.	.	.	.	.
*	*Xped	*	*	*	*	*	*	*	*	*	*	*	*	*	*	*	*
.	.	.	.	.	.	.	.	.	.	.	.	.	.	.	.	.	.
=19	=19	=19	=19	=19	=19	=19	=19	=19	=19	=19	=19	=19	=19	=19	=19	=19	=19
*	*ped	*	*	*	*	*	*	*	*	*	*	*	*	*	*	*	*
4BB- 4BBB-/	2dd 2f 2d/	.	1ryy	.	.	1ryy	.	.	1ryy	.	.	1ryy	.	.	2dd\	in-	.
4B- 4BB-^\	.	.	.	.	.	.	.	.	.	.	.	.	.	.	.	.	.
*	*Xped	*	*	*	*	*	*	*	*	*	*	*	*	*	*	*	*
.	.	.	.	.	.	.	.	.	.	.	.	.	.	.	.	.	.
4A 4AA^\	8.ccnL 8.f 8.c/	.	.	.	.	.	.	.	.	.	.	.	.	.	4ccn\	-néj	.
*	*ped	*	*	*	*	*	*	*	*	*	*	*	*	*	*	*	*
.	16ccK 16f 16c/	.	.	.	.	.	.	.	.	.	.	.	.	.	.	.	.
4F 4FF^\	8.cc 8.f 8.c/	.	.	.	.	.	.	.	.	.	.	.	.	.	4cc\	o	.
.	16ccJk 16f 16c/	.	.	.	.	.	.	.	.	.	.	.	.	.	.	.	.
*	*Xped	*	*	*	*	*	*	*	*	*	*	*	*	*	*	*	*
.	.	.	.	.	.	.	.	.	.	.	.	.	.	.	.	.	.
=20	=20	=20	=20	=20	=20	=20	=20	=20	=20	=20	=20	=20	=20	=20	=20	=20	=20
*	*ped	*	*	*	*	*	*	*	*	*	*	*	*	*	*	*	*
2E 2EE/	2b- 2g 2c/	.	1ryy	.	.	1ryy	.	.	1ryy	.	.	1ryy	.	.	2b-/	in-	.
*	*Xped	*	*	*	*	*	*	*	*	*	*	*	*	*	*	*	*
.	.	.	.	.	.	.	.	.	.	.	.	.	.	.	.	.	.
4F 4FF/	8.aL 8.f 8.c/	.	.	.	.	.	.	.	.	.	.	.	.	.	4a/	-néj	.
.	16aK 16f 16c/	.	.	.	.	.	.	.	.	.	.	.	.	.	.	.	.
4A 4AA/	8.cc 8.f 8.c/	.	.	.	.	.	.	.	.	.	.	.	.	.	4a/	po-	.
.	16aJk 16f 16c/	.	.	.	.	.	.	.	.	.	.	.	.	.	.	.	.
=21	=21	=21	=21	=21	=21	=21	=21	=21	=21	=21	=21	=21	=21	=21	=21	=21	=21
*	*ped	*	*	*	*	*	*	*	*	*	*	*	*	*	*	*	*
2C/	8gL 8e 8c/	.	1ryy	.	.	1ryy	.	.	1ryy	.	.	1ryy	.	.	(<2g^>/	-wia-	.
.	16ccL 16c/	ff	.	.	.	.	.	.	.	.	.	.	.	.	.	.	.
.	16ccJJ 16c/	.	.	.	.	.	.	.	.	.	.	.	.	.	.	.	.
.	8ccL 8c/	.	.	.	.	.	.	.	.	.	.	.	.	.	.	.	.
.	8ccJ 8c/	.	.	.	.	.	.	.	.	.	.	.	.	.	.	.	.
4C 4CC/	8ccL 8c/	.	.	.	.	.	.	.	.	.	.	.	.	.	4cc\)	-da!	.
.	8cc 8c/	.	.	.	.	.	.	.	.	.	.	.	.	.	.	.	.
4C 4CC/	8cc 8c/	.	.	.	.	.	.	.	.	.	.	.	.	.	4r	.	.
.	8b-J 8B-^/	.	.	.	.	.	.	.	.	.	.	.	.	.	.	.	.
*	*Xped	*	*	*	*	*	*	*	*	*	*	*	*	*	*	*	*
.	.	.	.	.	.	.	.	.	.	.	.	.	.	.	.	.	.
!!LO:LB:g=original
=22	=22	=22	=22	=22	=22	=22	=22	=22	=22	=22	=22	=22	=22	=22	=22	=22	=22
*xywh-#2:212,3023,2592,642	*xywh-#2:212,3023,2592,642	*xywh-#2:212,3023,2592,642	*xywh-#2:212,3023,2592,642	*	*	*xywh-#2:212,3023,2592,642	*	*	*xywh-#2:212,3023,2592,642	*	*	*xywh-#2:212,3023,2592,642	*	*	*xywh-#2:212,3023,2592,642	*xywh-#2:212,3023,2592,642	*
2C#X 2CC#X/	16r	fp	1ryy	.	.	1ryy	.	.	1ryy	.	.	1ryy	.	.	8r	.	.
.	(16A/LL	.	.	.	.	.	.	.	.	.	.	.	.	.	.	.	.
*	*ped	*	*	*	*	*	*	*	*	*	*	*	*	*	*	*	*
.	16e/	.	.	.	.	.	.	.	.	.	.	.	.	.	8a/	Dziś	.
.	16g/JJ	.	.	.	.	.	.	.	.	.	.	.	.	.	.	.	.
.	16a/LL	.	.	.	.	.	.	.	.	.	.	.	.	.	8a/	gi-	.
.	16g/	.	.	.	.	.	.	.	.	.	.	.	.	.	.	.	.
.	16e/	.	.	.	.	.	.	.	.	.	.	.	.	.	8a/	-nę,	.
.	16A/JJ)	.	.	.	.	.	.	.	.	.	.	.	.	.	.	.	.
2A 2AA\	16r	.	.	.	.	.	.	.	.	.	.	.	.	.	4cc#X^\	przez	.
.	(16e/LL	.	.	.	.	.	.	.	.	.	.	.	.	.	.	.	.
.	16g/	.	.	.	.	.	.	.	.	.	.	.	.	.	.	.	.
.	16a/JJ	.	.	.	.	.	.	.	.	.	.	.	.	.	.	.	.
.	16cc#X/LL	.	.	.	.	.	.	.	.	.	.	.	.	.	8a/	twe	.
.	16a/	.	.	.	.	.	.	.	.	.	.	.	.	.	.	.	.
.	16g/	.	.	.	.	.	.	.	.	.	.	.	.	.	8a/	bra-	.
*	*Xped	*	*	*	*	*	*	*	*	*	*	*	*	*	*	*	*
.	16e/JJ)	.	.	.	.	.	.	.	.	.	.	.	.	.	.	.	.
=23	=23	=23	=23	=23	=23	=23	=23	=23	=23	=23	=23	=23	=23	=23	=23	=23	=23
2DD/	16r	.	1ryy	.	.	1ryy	.	.	1ryy	.	.	1ryy	.	.	2dd\	-ters-	.
.	(16d/LL	.	.	.	.	.	.	.	.	.	.	.	.	.	.	.	.
.	16f/	.	.	.	.	.	.	.	.	.	.	.	.	.	.	.	.
.	16a/JJ	.	.	.	.	.	.	.	.	.	.	.	.	.	.	.	.
.	16dd/LL	.	.	.	.	.	.	.	.	.	.	.	.	.	.	.	.
.	16a/	.	.	.	.	.	.	.	.	.	.	.	.	.	.	.	.
.	16f/	.	.	.	.	.	.	.	.	.	.	.	.	.	.	.	.
.	16a/JJ	.	.	.	.	.	.	.	.	.	.	.	.	.	.	.	.
4D\	4d/)	.	.	.	.	.	.	.	.	.	.	.	.	.	4a/	-two!	.
4F\	(16dd\LL	.	.	.	.	.	.	.	.	.	.	.	.	.	4r	.	.
.	16cc#X\	.	.	.	.	.	.	.	.	.	.	.	.	.	.	.	.
.	16een\	.	.	.	.	.	.	.	.	.	.	.	.	.	.	.	.
.	16dd\JJ)	.	.	.	.	.	.	.	.	.	.	.	.	.	.	.	.
=24	=24	=24	=24	=24	=24	=24	=24	=24	=24	=24	=24	=24	=24	=24	=24	=24	=24
2A\	16r	.	1ryy	.	.	1ryy	.	.	1ryy	.	.	1ryy	.	.	8r	.	.
.	(16e/LL	.	.	.	.	.	.	.	.	.	.	.	.	.	.	.	.
.	16g/	.	.	.	.	.	.	.	.	.	.	.	.	.	8a/	dziś	.
.	16a/JJ	.	.	.	.	.	.	.	.	.	.	.	.	.	.	.	.
.	16cc#X/LL	.	.	.	.	.	.	.	.	.	.	.	.	.	8a/	gi-	.
.	16a/	.	.	.	.	.	.	.	.	.	.	.	.	.	.	.	.
.	16g/	.	.	.	.	.	.	.	.	.	.	.	.	.	8a/	-nę	.
.	16e/JJ)	.	.	.	.	.	.	.	.	.	.	.	.	.	.	.	.
2AA/	16r	.	.	.	.	.	.	.	.	.	.	.	.	.	4ee^\	przez	.
.	(16e/LL	.	.	.	.	.	.	.	.	.	.	.	.	.	.	.	.
.	16g/	.	.	.	.	.	.	.	.	.	.	.	.	.	.	.	.
.	16a/JJ	.	.	.	.	.	.	.	.	.	.	.	.	.	.	.	.
.	16cc#/LL	.	.	.	.	.	.	.	.	.	.	.	.	.	8a/	twe	.
.	16a/	.	.	.	.	.	.	.	.	.	.	.	.	.	.	.	.
.	16g/	.	.	.	.	.	.	.	.	.	.	.	.	.	8a/	bra-	.
.	16e/JJ)	.	.	.	.	.	.	.	.	.	.	.	.	.	.	.	.
=25	=25	=25	=25	=25	=25	=25	=25	=25	=25	=25	=25	=25	=25	=25	=25	=25	=25
2D/	16r	.	1ryy	.	.	1ryy	.	.	1ryy	.	.	1ryy	.	.	2ff^\	-ters-	.
.	(16d/LL	.	.	.	.	.	.	.	.	.	.	.	.	.	.	.	.
.	16f/	.	.	.	.	.	.	.	.	.	.	.	.	.	.	.	.
.	16a/JJ	.	.	.	.	.	.	.	.	.	.	.	.	.	.	.	.
.	16dd\LL	.	.	.	.	.	.	.	.	.	.	.	.	.	.	.	.
.	16f\	.	.	.	.	.	.	.	.	.	.	.	.	.	.	.	.
.	16a\	.	.	.	.	.	.	.	.	.	.	.	.	.	.	.	.
.	16dd\JJ	.	.	.	.	.	.	.	.	.	.	.	.	.	.	.	.
4DD/	16ff\LL	.	.	.	.	.	.	.	.	.	.	.	.	.	4dd\	-two!	.
.	16dd\	.	.	.	.	.	.	.	.	.	.	.	.	.	.	.	.
.	16a\	.	.	.	.	.	.	.	.	.	.	.	.	.	.	.	.
.	16f\JJ)	.	.	.	.	.	.	.	.	.	.	.	.	.	.	.	.
4r	4d^>/	.	.	.	.	.	.	.	.	.	.	.	.	.	4r	.	.
!!LO:PB:g=original
=26|!	=26|!	=26|!	=26|!	=26|!	=26|!	=26|!	=26|!	=26|!	=26|!	=26|!	=26|!	=26|!	=26|!	=26|!	=26|!	=26|!	=26|!
*^	*	*	*	*	*	*	*	*	*	*	*	*	*	*	*	*	*
*xywh-#3:231,232,2582,1189	*xywh-#3:231,232,2582,1189	*xywh-#3:231,232,2582,1189	*xywh-#3:231,232,2582,1189	*xywh-#3:231,232,2582,1189	*xywh-#3:231,232,2582,1189	*xywh-#3:231,232,2582,1189	*xywh-#3:231,232,2582,1189	*xywh-#3:231,232,2582,1189	*xywh-#3:231,232,2582,1189	*xywh-#3:231,232,2582,1189	*xywh-#3:231,232,2582,1189	*xywh-#3:231,232,2582,1189	*xywh-#3:231,232,2582,1189	*xywh-#3:231,232,2582,1189	*xywh-#3:231,232,2582,1189	*xywh-#3:231,232,2582,1189	*	*
8D/L	1D	(4.f#X^/	.	4r	.	.	4r	.	.	4r	.	.	4r	.	.	1ryy	.	.
!	!	!LO:TX:b:t=cres_cen_do:problem=dynamics with extention lines	!LO:HP:t=cres_cen_do	!	!	!LO:DY:a	!	!	!LO:DY:a	!	!	!LO:DY:a	!	!	!LO:DY:a	!	!	!
8A/	.	.	<	.	.	f	.	.	f	.	.	f	.	.	f	.	.	.
8F#X/	.	.	.	4D/	To	.	4F#X/	To	.	4A\	To	.	4dd\	To	.	.	.	.
8A/J	.	8dd\)	.	.	.	.	.	.	.	.	.	.	.	.	.	.	.	.
!	!	!	!	!	!	!	!	!	!	!	!	!	!LO:TX:a:t=cres_cen_do:problem=dynamics with extention lines	!	!LO:HP:a:t=cres_cen_do	!	!	!
8d/L	.	4dd\	.	[2D/	Fran-	.	(2F#/	Fran-	.	(2A\	Fran-	.	(2dd\	Fran-	<	.	.	.
8A/	.	.	.	.	.	.	.	.	.	.	.	.	.	.	.	.	.	.
8F#/	.	(16dd\LL	.	.	.	.	.	.	.	.	.	.	.	.	.	.	.	.
.	.	16cc#X\	.	.	.	.	.	.	.	.	.	.	.	.	.	.	.	.
8A/J	.	16ee-X\	.	.	.	.	.	.	.	.	.	.	.	.	.	.	.	.
.	.	16dd\JJ)	.	.	.	.	.	.	.	.	.	.	.	.	.	.	.	.
=27	=27	=27	=27	=27	=27	=27	=27	=27	=27	=27	=27	=27	=27	=27	=27	=27	=27	=27
8D/L	1D	(4.g^/	.	4.D/]	-cya!	.	4.G/)	-cya!	.	4.B-\)	-cya!	.	4.g\)	-cya!	.	1ryy	.	.
8B-/	.	.	.	.	.	.	.	.	.	.	.	.	.	.	.	.	.	.
8G/	.	.	.	.	.	.	.	.	.	.	.	.	.	.	.	.	.	.
8B-/J	.	8dd\)	.	8D/	to	.	8G/	to	.	8B-\	to	.	8dd\	to	.	.	.	.
8d/L	.	4dd\	.	[2D/	Fran-	.	(2G/	Fran-	.	(2B-\	Fran-	.	(2dd\	Fran-	.	.	.	.
8B-/	.	.	.	.	.	.	.	.	.	.	.	.	.	.	.	.	.	.
8G/	.	(16dd\LL	.	.	.	.	.	.	.	.	.	.	.	.	.	.	.	.
.	.	16cc#X\	.	.	.	.	.	.	.	.	.	.	.	.	.	.	.	.
8B-/J	.	16ee-X\	.	.	.	.	.	.	.	.	.	.	.	.	.	.	.	.
.	.	16dd\JJ)	.	.	.	.	.	.	.	.	.	.	.	.	.	.	.	.
=28	=28	=28	=28	=28	=28	=28	=28	=28	=28	=28	=28	=28	=28	=28	=28	=28	=28	=28
8D/L	1D	4.g#X/	.	2D/]	-cya!	.	2G#X 2E/)	-cya!	.	2B\)	-cya!	.	2g#X/)	-cya!	.	1ryy	.	.
8Bn/	.	.	[	.	.	.	.	.	.	.	.	.	.	.	.	.	.	.
8G#X/	.	.	.	.	.	.	.	.	.	.	.	.	.	.	[	.	.	.
8B/J	.	8een\	.	.	.	.	.	.	.	.	.	.	.	.	.	.	.	.
8d/L	.	4ee\	.	4D/	bia-	.	4G# 4E/	bia-	.	4B\	bia-	.	4ee\	bia-	.	.	.	.
8B/	.	.	.	.	.	.	.	.	.	.	.	.	.	.	.	.	.	.
8G#/	.	(16ee\LL	.	4D/	-da	.	4G# 4E/	-da	.	4B\	-da	.	4ee\	-da	.	.	.	.
.	.	16dd#X\	.	.	.	.	.	.	.	.	.	.	.	.	.	.	.	.
8B/J	.	16ff\	.	.	.	.	.	.	.	.	.	.	.	.	.	.	.	.
.	.	16ee\JJ)	.	.	.	.	.	.	.	.	.	.	.	.	.	.	.	.
=29	=29	=29	=29	=29	=29	=29	=29	=29	=29	=29	=29	=29	=29	=29	=29	=29	=29	=29
8D/L	2.D\	4a\	f	4AA/	nam,	.	4A/	nam,	.	4c#X\	nam,	.	4a\	nam,	.	1ryy	.	.
8E/	.	.	.	.	.	.	.	.	.	.	.	.	.	.	.	.	.	.
!	!	!LO:TX:a:t=rall.	!	!	!	!LO:DY:a	!	!	!LO:DY:a	!	!	!	!LO:TX:a:t=Rall.	!	!	!	!	!
8G/	.	8cc#X\L	.	8r	.	f	8r	.	f	8r	.	.	8r	.	.	.	.	.
!	!	!	!	!	!	!	!	!	!	!	!	!LO:DY:a	!	!	!	!	!	!
8A/J	.	8ee\J	.	8AA/	oj,	.	8A/	oj,	.	8c#\	oj,	f	8ee\	oj,	.	.	.	.
8c#X/L	.	8aa\L	.	(2AA;/	bia-	.	(2A/;	bia-	.	(2c#;\	bia-	.	2aa;\	bia-	.	.	.	.
8A/	.	8ee\	.	.	.	.	.	.	.	.	.	.	.	.	.	.	.	.
8G/	4AA;\	8cc#\	.	.	.	.	.	.	.	.	.	.	.	.	.	.	.	.
8E/J	.	8a;\J	.	.	.	.	.	.	.	.	.	.	.	.	.	.	.	.
=30	=30	=30	=30	=30	=30	=30	=30	=30	=30	=30	=30	=30	=30	=30	=30	=30	=30	=30
.	.	(16qqd/LL	.	.	.	.	.	.	.	.	.	.	.	.	.	.	.	.
.	.	16qqf/JJ	f	.	.	.	.	.	.	.	.	.	.	.	.	.	.	.
8F/L	2D\	2dd\)	.	8D/)	-da!	.	8F/)	-da!	.	8d\)	-da!	.	8dd\	-da!	.	1ryy	.	.
8A/	.	.	.	8D/	Ty,	.	8F/	Ty,	.	8d\	Ty,	.	8dd\	Ty,	.	.	.	.
8d/	.	.	.	8D/	na-	.	8F/	na-	.	8d\	na-	.	8dd\	na-	.	.	.	.
8A/J	.	.	.	8D/	-szą	.	8F/	-szą	.	8d\	-szą	.	8dd\	-szą	.	.	.	.
8G/L	2D\	(8ccn/L	.	4D/	sio-	.	4G/	sio-	.	8cn\L	sio-	.	8ccn\L	sio-	.	.	.	.
8B-/	.	8b-/	.	.	.	.	.	.	.	8B-\J	.	.	8b-\J	.	.	.	.	.
8d/	.	8a/	.	8D/	-strą?	.	8F/	-strą?	.	8A/	-strą?	.	8a/	-strą?	.	.	.	.
8B-/J	.	8g/J)	.	8D/	szy	.	8E/	szy	.	8G/	szy	.	8g/	szy-	.	.	.	.
*v	*v	*	*	*	*	*	*	*	*	*	*	*	*	*	*	*	*	*
!!LO:LB:g=original
=31	=31	=31	=31	=31	=31	=31	=31	=31	=31	=31	=31	=31	=31	=31	=31	=31	=31
*xywh-#3:220,1357,2592,1162	*xywh-#3:220,1357,2592,1162	*	*xywh-#3:220,1357,2592,1162	*xywh-#3:220,1357,2592,1162	*	*xywh-#3:220,1357,2592,1162	*xywh-#3:220,1357,2592,1162	*	*xywh-#3:220,1357,2592,1162	*xywh-#3:220,1357,2592,1162	*	*xywh-#3:220,1357,2592,1162	*xywh-#3:220,1357,2592,1162	*	*xywh-#3:220,1357,2592,1162	*	*
8D\L	4.f/	.	2D\	-ders-	.	2A/	-ders-	.	(4F/	-ders-	.	(4.f/	-ders-	.	1ryy	.	.
8F\	.	.	.	.	.	.	.	.	.	.	.	.	.	.	.	.	.
8A\	.	.	.	.	.	.	.	.	8f\L)	.	.	.	.	.	.	.	.
8c#X\J	8e/	.	.	.	.	.	.	.	8e\J	.	.	8e/)	.	.	.	.	.
4d\	8d/L	.	4D\	-two!	.	4F/	-two!	.	4d\	-two!	.	4d/	-two!	.	.	.	.
.	8f/	.	.	.	.	.	.	.	.	.	.	.	.	.	.	.	.
4D\	8b-/	.	4r	.	.	4r	.	.	4r	.	.	4r	.	.	.	.	.
.	8a/J	.	.	.	.	.	.	.	.	.	.	.	.	.	.	.	.
=32	=32	=32	=32	=32	=32	=32	=32	=32	=32	=32	=32	=32	=32	=32	=32	=32	=32
!	!	!	!	!	!	!	!	!	!	!	!	!	!	!LO:DY:a:rj	!	!	!
2A\	8r	.	4AA/	Przesz-	.	4A/	Przesz-	.	4A/	Przesz-	.	4a/	Przesz-	p	1ryy	.	.
.	(8e/L	.	.	.	.	.	.	.	.	.	.	.	.	.	.	.	.
.	8cc#X 8a/	.	8E\	-łość	.	8E/	-łość	.	8A/	-łość	.	8a/	-łość	.	.	.	.
.	8e/J	.	8E\	o	.	8E/	o	.	8A/	o	.	8a/	o	.	.	.	.
4AA/	8ee/L	.	4AA/	in-	.	4A/	in-	.	4E/	in-	.	4cc#X/	in-	.	.	.	.
.	8cc#/	.	.	.	.	.	.	.	.	.	.	.	.	.	.	.	.
4r	8b-/	.	8AA/	-néj	.	8A/	-néj	.	8A/	-néj	.	8a/	-néj	.	.	.	.
.	8a/J)	.	8AA/	po-	.	8c#X/	po-	.	8A/	po-	.	8a/	po-	.	.	.	.
=33	=33	=33	=33	=33	=33	=33	=33	=33	=33	=33	=33	=33	=33	=33	=33	=33	=33
2D/	8r	.	2D\	-wia-	.	2d\	-wia-	.	2G/	-wia-	.	2dd^\	-wia-	.	1ryy	.	.
.	8f\L	.	.	.	.	.	.	.	.	.	.	.	.	.	.	.	.
.	8a\	.	.	.	.	.	.	.	.	.	.	.	.	.	.	.	.
.	8dd\J	.	.	.	.	.	.	.	.	.	.	.	.	.	.	.	.
4A 4AA/	8cc#X\L	.	4D\	-da!	.	4A/	-da!	.	4F/	-da!	.	4a/	-da!	.	.	.	.
.	8a\	.	.	.	.	.	.	.	.	.	.	.	.	.	.	.	.
4r	8dd\	.	4r	.	.	4r	.	.	4r	.	.	4r	.	.	.	.	.
.	8ee\J	.	.	.	.	.	.	.	.	.	.	.	.	.	.	.	.
=34	=34	=34	=34	=34	=34	=34	=34	=34	=34	=34	=34	=34	=34	=34	=34	=34	=34
*^	*	*	*	*	*	*	*	*	*	*	*	*	*	*	*	*	*
*	*xywh-#3:220,1357,2592,1162	*	*	*	*	*	*	*	*	*	*	*	*	*	*	*	*	*
.	.	(16qqf/LL	.	.	.	.	.	.	.	.	.	.	.	.	.	.	.	.
.	.	16qqa/JJ	f	.	.	.	.	.	.	.	.	.	.	.	.	.	.	.
!	!	!	!	!	!	!LO:DY:a:rj	!	!	!LO:DY:a:rj	!	!	!LO:DY:a:rj	!	!	!LO:DY:a:rj	!	!	!
8D/L	2D\	4ff 4cc 4a\)	.	4.D\	Dziś	f	4.d\	Dziś	f	4.A/	Dziś	f	4.ff^\	Dziś	f	1ryy	.	.
8F/	.	.	.	.	.	.	.	.	.	.	.	.	.	.	.	.	.	.
8A/	.	(4ee\	.	.	.	.	.	.	.	.	.	.	.	.	.	.	.	.
8c#X/J	.	.	.	8D\	gi-	.	8A/	gi-	.	8A/	gi-	.	8ee\	gi-	.	.	.	.
2ryy	8d\L	8dd\L	.	8D\	-niem	.	8F/	-niem	.	8A/	-niem	.	8dd\	-niem	.	.	.	.
.	8F#X^\	8ccn\	.	8D\	przez	.	8F#X/	przez	.	8A/	przez	.	8ccn\	przez	.	.	.	.
.	8G\	8b-\	.	8D\	twe	.	8G/	twe	.	8B-/	twe	.	8b-\	twe	.	.	.	.
.	8D^\J	8a\J)	.	8D\	bra-	.	8F#/	bra-	.	8A/	bra-	.	8a\	bra-	.	.	.	.
*v	*v	*	*	*	*	*	*	*	*	*	*	*	*	*	*	*	*	*
=35	=35	=35	=35	=35	=35	=35	=35	=35	=35	=35	=35	=35	=35	=35	=35	=35	=35
8GG/L	(4.cc^\	.	2GG/	-ters-	.	2G/	-ters-	.	2G/	-ters-	.	(4.cc\	-ters-	.	1ryy	.	.
8BB-/	.	.	.	.	.	.	.	.	.	.	.	.	.	.	.	.	.
8D/	.	.	.	.	.	.	.	.	.	.	.	.	.	.	.	.	.
8G/J	8b-\)	.	.	.	.	.	.	.	.	.	.	8b-\)	.	.	.	.	.
4B-\	4g\	.	4GG/	-two!	.	4B-/	-two!	.	4G/	-two!	.	4g/	-two!	.	.	.	.
4B- 4BB-\	4dd 4g#X 4f/	sf	4r	.	.	4r	.	.	4r	.	.	4r	.	.	.	.	.
!!LO:LB:g=original
=36	=36	=36	=36	=36	=36	=36	=36	=36	=36	=36	=36	=36	=36	=36	=36	=36	=36
*^	*	*	*	*	*	*	*	*	*	*	*	*	*	*	*	*	*
*xywh-#3:199,2461,2614,1274	*xywh-#3:199,2461,2614,1274	*xywh-#3:199,2461,2614,1274	*	*xywh-#3:199,2461,2614,1274	*xywh-#3:199,2461,2614,1274	*xywh-#3:199,2461,2614,1274	*xywh-#3:199,2461,2614,1274	*xywh-#3:199,2461,2614,1274	*xywh-#3:199,2461,2614,1274	*xywh-#3:199,2461,2614,1274	*xywh-#3:199,2461,2614,1274	*xywh-#3:199,2461,2614,1274	*xywh-#3:199,2461,2614,1274	*xywh-#3:199,2461,2614,1274	*	*xywh-#3:199,2461,2614,1274	*	*
!	!	!	!	!	!	!LO:DY:rj	!	!	!LO:DY:rj	!	!	!LO:DY:rj	!	!	!	!	!	!
8AA/L	2AA\	(2a 2f/	.	4D/	Gi-	p	4Fn/	Gi-	p	4A/	Gi-	p	4a/	Gi-	.	1ryy	.	.
8D/	.	.	.	.	.	.	.	.	.	.	.	.	.	.	.	.	.	.
8F/	.	.	.	8D/	-niem,	.	8F/	-niem,	.	8A/	-niem,	.	8a/	-niem,	.	.	.	.
8A/J	.	.	.	8D/	przez	.	8F/	przez	.	8A/	przez	.	8a/	przez	.	.	.	.
.	.	8qqa/	.	.	.	.	.	.	.	.	.	.	.	.	.	.	.	.
8AA/L	2AA\	4ff 4a\	.	4AA/	twe	.	4A/	twe	.	4d\	twe	.	4ff^\	twe	.	.	.	.
8C#X/	.	.	.	.	.	.	.	.	.	.	.	.	.	.	.	.	.	.
8E/	.	4ee 4g\)	.	4AA/	bra-	.	4A/	bra-	.	4c#X\	bra-	.	4ee\	bra-	.	.	.	.
8A/J	.	.	.	.	.	.	.	.	.	.	.	.	.	.	.	.	.	.
=37	=37	=37	=37	=37	=37	=37	=37	=37	=37	=37	=37	=37	=37	=37	=37	=37	=37	=37
*	*	*^	*	*	*	*	*	*	*	*	*	*	*	*	*	*	*	*
*	*	*	*xywh-#3:199,2461,2614,1274	*	*	*	*	*	*	*	*	*	*	*	*	*	*	*	*
!	!	!	!	!LO:DY:rj	!	!	!	!	!	!	!	!	!	!	!	!	!	!	!
2D/	8D\L	(2ee 2cc#X 2a/	(<2g\	sf	2AA/	-ters-	.	(4A/	-ters-	.	2c#X\	-ters-	.	2ee^\	-ters-	.	1ryy	.	.
.	8G\	.	.	.	.	.	.	.	.	.	.	.	.	.	.	.	.	.	.
.	8A\	.	.	.	.	.	.	4G/)	.	.	.	.	.	.	.	.	.	.	.
.	8G\J	.	.	.	.	.	.	.	.	.	.	.	.	.	.	.	.	.	.
4ryy	4d 4D\	4dd 4a) 4f)/	4ryy	.	4D/	-two!	.	4F/	-two!	.	4d\	-two!	.	4dd\	-two!	.	.	.	.
8.AAL 8.AAA/	4ryy	8.aL 8.A/	4ryy	.	4r	.	.	4r	.	.	4r	.	.	4r	.	.	.	.	.
16AAJk 16AAA/	.	16aJk 16A/	.	.	.	.	.	.	.	.	.	.	.	.	.	.	.	.	.
*v	*v	*	*	*	*	*	*	*	*	*	*	*	*	*	*	*	*	*	*
=38	=38	=38	=38	=38	=38	=38	=38	=38	=38	=38	=38	=38	=38	=38	=38	=38	=38	=38
*	*	*	*	*	*	*	*	*	*	*	*	*	*^	*	*	*	*	*
*	*	*	*	*	*	*	*	*	*	*	*	*	*	*	*	*	*	*	*
*tremolo	*	*	*	*	*	*	*	*	*	*	*	*	*cue	*xywh-#3:199,2461,2614,1274	*xywh-#3:199,2461,2614,1274	*	*	*	*
!	!	!	!LO:DY:rj	!	!	!LO:DY:rj	!	!	!LO:DY:rj	!	!	!LO:DY:rj	!LO:TX:a:t=Rall. adlib.	!	!	!	!	!	!
32AAA/LLL	2ryy	2a 2e 2c#X/	ff	2AA/	Va	f	2E/	Vae	f	2A\	Vae	f	16ryy	2a\	Vae-	.	1ryy	.	.
32AA/	.	.	.	.	.	.	.	.	.	.	.	.	.	.	.	.	.	.	.
!	!	!	!	!	!	!	!	!	!	!	!	!	!LO:N:vis=8	!	!	!	!	!	!
32AAA/	.	.	.	.	.	.	.	.	.	.	.	.	16a/Lk	.	.	.	.	.	.
32AA/	.	.	.	.	.	.	.	.	.	.	.	.	.	.	.	.	.	.	.
32AAA/	.	.	.	.	.	.	.	.	.	.	.	.	8b-/	.	.	.	.	.	.
32AA/	.	.	.	.	.	.	.	.	.	.	.	.	.	.	.	.	.	.	.
32AAA/	.	.	.	.	.	.	.	.	.	.	.	.	.	.	.	.	.	.	.
32AA/	.	.	.	.	.	.	.	.	.	.	.	.	.	.	.	.	.	.	.
!	!	!LO:TX:a:t=Rall. Colla voce	!	!	!	!	!	!	!	!	!	!	!	!	!	!	!	!	!
32AAA/	.	.	.	.	.	.	.	.	.	.	.	.	8a/	.	.	.	.	.	.
32AA/	.	.	.	.	.	.	.	.	.	.	.	.	.	.	.	.	.	.	.
32AAA/	.	.	.	.	.	.	.	.	.	.	.	.	.	.	.	.	.	.	.
32AA/	.	.	.	.	.	.	.	.	.	.	.	.	.	.	.	.	.	.	.
32AAA/	.	.	.	.	.	.	.	.	.	.	.	.	8cc#X/J	.	.	.	.	.	.
32AA/	.	.	.	.	.	.	.	.	.	.	.	.	.	.	.	.	.	.	.
32AAA/	.	.	.	.	.	.	.	.	.	.	.	.	.	.	.	.	.	.	.
32AA/JJJ	.	.	.	.	.	.	.	.	.	.	.	.	.	.	.	.	.	.	.
32AAA/LLL	4b-X/	2g 2e\	.	2AA/	vic-	.	2A/	vic-	.	2c#X\	vic-	.	(8a/L	2ryy	.	.	.	.	.
32AA/	.	.	.	.	.	.	.	.	.	.	.	.	.	.	.	.	.	.	.
32AAA/	.	.	.	.	.	.	.	.	.	.	.	.	.	.	.	.	.	.	.
32AA/	.	.	.	.	.	.	.	.	.	.	.	.	.	.	.	.	.	.	.
32AAA/	.	.	.	.	.	.	.	.	.	.	.	.	8cc#/	.	.	.	.	.	.
32AA/	.	.	.	.	.	.	.	.	.	.	.	.	.	.	.	.	.	.	.
32AAA/	.	.	.	.	.	.	.	.	.	.	.	.	.	.	.	.	.	.	.
32AA/	.	.	.	.	.	.	.	.	.	.	.	.	.	.	.	.	.	.	.
32AAA/	8a/L	.	.	.	.	.	.	.	.	.	.	.	8ff/	.	vic-	.	.	.	.
32AA/	.	.	.	.	.	.	.	.	.	.	.	.	.	.	.	.	.	.	.
32AAA/	.	.	.	.	.	.	.	.	.	.	.	.	.	.	.	.	.	.	.
32AA/	.	.	.	.	.	.	.	.	.	.	.	.	.	.	.	.	.	.	.
32AAA/	8g/J	.	.	.	.	.	.	.	.	.	.	.	8ee/J)	.	.	.	.	.	.
32AA/	.	.	.	.	.	.	.	.	.	.	.	.	.	.	.	.	.	.	.
32AAA/	.	.	.	.	.	.	.	.	.	.	.	.	.	.	.	.	.	.	.
32AA/JJJ	.	.	.	.	.	.	.	.	.	.	.	.	.	.	.	.	.	.	.
*	*	*	*	*	*	*	*	*	*	*	*	*	*Xcue	*	*	*	*	*	*
*	*	*	*	*	*	*	*	*	*	*	*	*	*v	*v	*	*	*	*	*
*	*v	*v	*	*	*	*	*	*	*	*	*	*	*	*	*	*	*	*
=39	=39	=39	=39	=39	=39	=39	=39	=39	=39	=39	=39	=39	=39	=39	=39	=39	=39
32DD/LLL	2dd 2f 2d/	.	2D;/	-tis!	.	2F;/	-tis!	.	2d;\	-tis!	.	2dd;\	-tis!	.	1ryy	.	.
32D/	.	.	.	.	.	.	.	.	.	.	.	.	.	.	.	.	.
32DD/	.	.	.	.	.	.	.	.	.	.	.	.	.	.	.	.	.
32D/	.	.	.	.	.	.	.	.	.	.	.	.	.	.	.	.	.
32DD/	.	.	.	.	.	.	.	.	.	.	.	.	.	.	.	.	.
32D/	.	.	.	.	.	.	.	.	.	.	.	.	.	.	.	.	.
32DD/	.	.	.	.	.	.	.	.	.	.	.	.	.	.	.	.	.
32D/	.	.	.	.	.	.	.	.	.	.	.	.	.	.	.	.	.
32DD/	.	.	.	.	.	.	.	.	.	.	.	.	.	.	.	.	.
32D/	.	.	.	.	.	.	.	.	.	.	.	.	.	.	.	.	.
32DD/	.	.	.	.	.	.	.	.	.	.	.	.	.	.	.	.	.
32D/	.	.	.	.	.	.	.	.	.	.	.	.	.	.	.	.	.
32DD/	.	.	.	.	.	.	.	.	.	.	.	.	.	.	.	.	.
32D/	.	.	.	.	.	.	.	.	.	.	.	.	.	.	.	.	.
32DD/	.	.	.	.	.	.	.	.	.	.	.	.	.	.	.	.	.
32D/JJJ	.	.	.	.	.	.	.	.	.	.	.	.	.	.	.	.	.
32DD/LLL	4.dd 4.f 4.d/	.	2r	.	.	2r	.	.	2r	.	.	2r	.	.	.	.	.
32D/	.	.	.	.	.	.	.	.	.	.	.	.	.	.	.	.	.
32DD/	.	.	.	.	.	.	.	.	.	.	.	.	.	.	.	.	.
32D/	.	.	.	.	.	.	.	.	.	.	.	.	.	.	.	.	.
32DD/	.	.	.	.	.	.	.	.	.	.	.	.	.	.	.	.	.
32D/	.	.	.	.	.	.	.	.	.	.	.	.	.	.	.	.	.
32DD/	.	.	.	.	.	.	.	.	.	.	.	.	.	.	.	.	.
32D/	.	.	.	.	.	.	.	.	.	.	.	.	.	.	.	.	.
32DD/	.	.	.	.	.	.	.	.	.	.	.	.	.	.	.	.	.
32D/	.	.	.	.	.	.	.	.	.	.	.	.	.	.	.	.	.
32DD/	.	.	.	.	.	.	.	.	.	.	.	.	.	.	.	.	.
32D/	.	.	.	.	.	.	.	.	.	.	.	.	.	.	.	.	.
32DD/	8dd 8f 8d/	.	.	.	.	.	.	.	.	.	.	.	.	.	.	.	.
32D/	.	.	.	.	.	.	.	.	.	.	.	.	.	.	.	.	.
32DD/	.	.	.	.	.	.	.	.	.	.	.	.	.	.	.	.	.
32D/JJJ	.	.	.	.	.	.	.	.	.	.	.	.	.	.	.	.	.
*Xtremolo	*	*	*	*	*	*	*	*	*	*	*	*	*	*	*	*	*
=40	=40	=40	=40	=40	=40	=40	=40	=40	=40	=40	=40	=40	=40	=40	=40	=40	=40
4D 4DD/	4ff 4a 4f/	f	1r	.	.	1r	.	.	1r	.	.	1r	.	.	1ryy	.	.
4A 4AA^\	4ee 4cc#X 4a 4e/	.	.	.	.	.	.	.	.	.	.	.	.	.	.	.	.
4B- 4BB-^\	4dd 4f 4d/	.	.	.	.	.	.	.	.	.	.	.	.	.	.	.	.
4A 4AA^\	4ccn 4f 4c/	.	.	.	.	.	.	.	.	.	.	.	.	.	.	.	.
=41	=41	=41	=41	=41	=41	=41	=41	=41	=41	=41	=41	=41	=41	=41	=41	=41	=41
4G 4GG^\	4b- 4e 4c/	.	1r	.	.	1r	.	.	1r	.	.	1r	.	.	1ryy	.	.
4F 4FF^\	4a 4f 4c/	.	.	.	.	.	.	.	.	.	.	.	.	.	.	.	.
4.E 4.EE^>/	4.cc#X 4.g 4.e/	.	.	.	.	.	.	.	.	.	.	.	.	.	.	.	.
8D 8DD^>/	8dd 8f/	.	.	.	.	.	.	.	.	.	.	.	.	.	.	.	.
=42	=42	=42	=42	=42	=42	=42	=42	=42	=42	=42	=42	=42	=42	=42	=42	=42	=42
*	*^	*	*	*	*	*	*	*	*	*	*	*	*	*	*	*	*
2D 2DD/	2dd 2a 2f/	2ryy	.	1r	.	.	1r	.	.	1r	.	.	1r	.	.	1ryy	.	.
4.AA/	2r	4ryy	.	.	.	.	.	.	.	.	.	.	.	.	.	.	.	.
.	.	8ryy	.	.	.	.	.	.	.	.	.	.	.	.	.	.	.	.
8DD\	.	8d< 8A< 8F</	.	.	.	.	.	.	.	.	.	.	.	.	.	.	.	.
*	*v	*v	*	*	*	*	*	*	*	*	*	*	*	*	*	*	*	*
=43	=43	=43	=43	=43	=43	=43	=43	=43	=43	=43	=43	=43	=43	=43	=43	=43	=43
2DD;<\	2d< 2A< 2F<;/	.	1r	.	.	1r	.	.	1r	.	.	1r	.	.	1ryy	.	.
2r	2ryy	.	.	.	.	.	.	.	.	.	.	.	.	.	.	.	.
!!LO:PB:g=original
=44|!	=44|!	=44|!	=44|!	=44|!	=44|!	=44|!	=44|!	=44|!	=44|!	=44|!	=44|!	=44|!	=44|!	=44|!	=44|!	=44|!	=44|!
*xywh-#4:426,2962,2570,255	*xywh-#4:426,2962,2570,255	*xywh-#4:426,2962,2570,255	*xywh-#4:426,2962,2570,255	*	*	*xywh-#4:426,2962,2570,255	*	*	*xywh-#4:426,2962,2570,255	*xywh-#4:426,2962,2570,255	*	*xywh-#4:426,2962,2570,255	*	*	*xywh-#4:426,2962,2570,255	*	*
!	!LO:TX:t=P:problem=powtórka taktów 1-43	!	!	!	!	!	!	!	!	!	!	!	!	!	!LO:TX:a:t=4	!	!
!LO:TX:t=P:problem=powtórka taktów 1-43	!	!LO:DY:rj	!	!	!	!	!	!	!	!	!	!	!	!	!LO:TX:a:t=2a ZWR.	!	!
2Dyy 2DD/yy	2ddyy 2d/yy	fy	1ryy	.	.	1ryy	.	.	1ryy	.	.	1ryy	.	.	00r	.	.
2F#Xyy 2FF#X^>/yy	4ccyy 4ayy 4d/yy	.	.	.	.	.	.	.	.	.	.	.	.	.	.	.	.
.	4ccyy 4ayy 4d/yy	.	.	.	.	.	.	.	.	.	.	.	.	.	.	.	.
=45	=45	=45	=45	=45	=45	=45	=45	=45	=45	=45	=45	=45	=45	=45	=45	=45	=45
2Gyy 2GG/yy	2bnyy 2gyy 2d/yy	.	1ryy	.	.	1ryy	.	.	1ryy	.	.	1ryy	.	.	.	.	.
2Eyy 2EE/yy	2b-Xyy 2gyy 2c/yy	.	.	.	.	.	.	.	.	.	.	.	.	.	.	.	.
=46	=46	=46	=46	=46	=46	=46	=46	=46	=46	=46	=46	=46	=46	=46	=46	=46	=46
*	*^	*	*	*	*	*	*	*	*	*	*	*	*	*	*	*	*
2Fyy 2FF/yy	2b-yy 2f/yy	2c\yy	.	1ryy	.	.	1ryy	.	.	1ryy	.	.	1ryy	.	.	.	.	.
2Gyy 2GG/yy	4e/yy	2c\yy	.	.	.	.	.	.	.	.	.	.	.	.	.	.	.	.
.	4a/yy	.	mfy	.	.	.	.	.	.	.	.	.	.	.	.	.	.	.
=47	=47	=47	=47	=47	=47	=47	=47	=47	=47	=47	=47	=47	=47	=47	=47	=47	=47	=47
[y2Ayy [y2AA\yy	[y2ayy 2fyy 2d/yy	2ryyyy	.	1ryy	.	.	1ryy	.	.	1ryy	.	.	1ryy	.	.	.	.	.
2A]yy 2AA\]yy	2a]yy 2e/yy	4d\yy	.	.	.	.	.	.	.	.	.	.	.	.	.	.	.	.
.	.	4c#X\yy	.	.	.	.	.	.	.	.	.	.	.	.	.	.	.	.
*	*v	*v	*	*	*	*	*	*	*	*	*	*	*	*	*	*	*	*
=48	=48	=48	=48	=48	=48	=48	=48	=48	=48	=48	=48	=48	=48	=48	=48	=48	=48
!	!	!	!	!	!	!	!	!	!	!	!	!	!	!	!LO:TX:a:t=adlib	!	!LO:DY:a:rj
4AAyy 4AAA/yy	4ayy 4c#Xyy 4Ayy 4G/yy	.	1ryy	.	.	1ryy	.	.	1ryy	.	.	1ryy	.	.	(4.ee\	Vae	f
4ryy	4ryy	.	.	.	.	.	.	.	.	.	.	.	.	.	.	.	.
.	.	.	.	.	.	.	.	.	.	.	.	.	.	.	8cc#X\)	.	.
*	*	*	*	*	*	*	*	*	*	*	*	*	*	*	*Xtuplet	*	*
!	!	!	!	!	!	!	!	!	!	!	!	!	!	!	!LO:TUP:problem=klamra łukowa	!	!
2r;yy	2r;yy	.	.	.	.	.	.	.	.	.	.	.	.	.	12gg\L	vic-	.
.	.	.	.	.	.	.	.	.	.	.	.	.	.	.	12ee\	.	.
.	.	.	.	.	.	.	.	.	.	.	.	.	.	.	12cc#\J	.	.
.	.	.	.	.	.	.	.	.	.	.	.	.	.	.	4a;/	-tis!	.
=49	=49	=49	=49	=49	=49	=49	=49	=49	=49	=49	=49	=49	=49	=49	=49	=49	=49
!	!	!	!	!	!	!	!	!	!	!	!	!	!	!	!LO:TX:a:t=a tempo	!	!
(y8D\Lyy	2ddyy 2d/yy	mfy	1ryy	.	.	1ryy	.	.	1ryy	.	.	1ryy	.	.	2dd\	Tak	.
8F\yy	.	.	.	.	.	.	.	.	.	.	.	.	.	.	.	.	.
8A\yy	.	.	.	.	.	.	.	.	.	.	.	.	.	.	.	.	.
8F\J)yy	.	.	.	.	.	.	.	.	.	.	.	.	.	.	.	.	.
.	(y32qqd/LLLyy	.	.	.	.	.	.	.	.	.	.	.	.	.	.	.	.
.	32qqg/JJJyy	.	.	.	.	.	.	.	.	.	.	.	.	.	.	.	.
(y8D\Lyy	(y8ccn/L)yy	.	.	.	.	.	.	.	.	.	.	.	.	.	(8ccn\L	dziś	.
8G\yy	8b-/yy	.	.	.	.	.	.	.	.	.	.	.	.	.	8b-\J)	.	.
8A\yy	8a/yy	.	.	.	.	.	.	.	.	.	.	.	.	.	(8a/L	mi	.
8B-\J)yy	8g/Jyy	.	.	.	.	.	.	.	.	.	.	.	.	.	8g/J)	.	.
=50	=50	=50	=50	=50	=50	=50	=50	=50	=50	=50	=50	=50	=50	=50	=50	=50	=50
*	*	*	*	*	*	*	*	*	*	*	*	*	*	*	*	*xywh-#4:426,2962,2570,255	*xywh-#4:426,2962,2570,255
(y8D\Lyy	[y4f/)yy	.	1ryy	.	.	1ryy	.	.	1ryy	.	.	1ryy	.	.	(4.f/	pła-	.
8F\yy	.	.	.	.	.	.	.	.	.	.	.	.	.	.	.	.	.
8A\yy	8aL 8f/]yy	.	.	.	.	.	.	.	.	.	.	.	.	.	.	.	.
8G\Jyy	8cc#XJ 8e/yy	.	.	.	.	.	.	.	.	.	.	.	.	.	8e/)	.	.
8F\Lyy	4ddyy 4d/yy	.	.	.	.	.	.	.	.	.	.	.	.	.	4d/	-ci	.
8E\yy	.	.	.	.	.	.	.	.	.	.	.	.	.	.	.	.	.
8D\yy	8ryy	.	.	.	.	.	.	.	.	.	.	.	.	.	8r	.	.
8Cn\J)yy	8d/yy	.	.	.	.	.	.	.	.	.	.	.	.	.	8d/	Twa	.
=51	=51	=51	=51	=51	=51	=51	=51	=51	=51	=51	=51	=51	=51	=51	=51	=51	=51
*	*^	*	*	*	*	*	*	*	*	*	*	*	*	*	*	*	*
!	!	!	!LO:HP:a	!	!	!	!	!	!	!	!	!	!	!	!	!	!	!
8BB-^\Lyy	4g/yy	4d\yy	<	1ryy	.	.	1ryy	.	.	1ryy	.	.	1ryy	.	.	4g/	dzia-	.
8D\Jyy	.	.	.	.	.	.	.	.	.	.	.	.	.	.	.	.	.	.
8AA^\Lyy	4f#X/yy	2d\yy	.	.	.	.	.	.	.	.	.	.	.	.	.	4d/	-twa	.
8D\Jyy	.	.	.	.	.	.	.	.	.	.	.	.	.	.	.	.	.	.
8GG\Lyy	4g/yy	.	.	.	.	.	.	.	.	.	.	.	.	.	.	4g/	sro-	.
8G\yy	.	.	.	.	.	.	.	.	.	.	.	.	.	.	.	.	.	.
8D\yy	4b-/yy	4d\yy	[	.	.	.	.	.	.	.	.	.	.	.	.	8b-/	-ga	.
8G\Jyy	.	.	.	.	.	.	.	.	.	.	.	.	.	.	.	8b-/	i	.
*	*v	*v	*	*	*	*	*	*	*	*	*	*	*	*	*	*	*	*
=52	=52	=52	=52	=52	=52	=52	=52	=52	=52	=52	=52	=52	=52	=52	=52	=52	=52
*^	*	*	*	*	*	*	*	*	*	*	*	*	*	*	*	*	*
4A/yy	8AA\Lyy	4.ayy 4.c#X/yy	.	1ryy	.	.	1ryy	.	.	1ryy	.	.	1ryy	.	.	2a/	pło-	.
.	8C#X\yy	.	.	.	.	.	.	.	.	.	.	.	.	.	.	.	.	.
4ryyyy	8E\yy	.	.	.	.	.	.	.	.	.	.	.	.	.	.	.	.	.
.	8G\Jyy	8e/yy	.	.	.	.	.	.	.	.	.	.	.	.	.	.	.	.
.	.	.	.	.	.	.	.	.	.	.	.	.	.	.	.	(<16qqcc#X/LL	.	.
.	.	.	.	.	.	.	.	.	.	.	.	.	.	.	.	16qqbn/JJ	.	.
2AA/yy	2ryyyy	8a/Lyy	.	.	.	.	.	.	.	.	.	.	.	.	.	4a/)	-cha	.
.	.	8a/yy	.	.	.	.	.	.	.	.	.	.	.	.	.	.	.	.
.	.	8bn/yy	.	.	.	.	.	.	.	.	.	.	.	.	.	4r	.	.
.	.	8cc#X/Jyy	.	.	.	.	.	.	.	.	.	.	.	.	.	.	.	.
*v	*v	*	*	*	*	*	*	*	*	*	*	*	*	*	*	*	*	*
=53	=53	=53	=53	=53	=53	=53	=53	=53	=53	=53	=53	=53	=53	=53	=53	=53	=53
.	(y32qqd/LLLyy	fy	.	.	.	.	.	.	.	.	.	.	.	.	.	.	.
.	32qqf/JJJyy	.	.	.	.	.	.	.	.	.	.	.	.	.	.	.	.
8DLyy 8DD\yy	2ddyy 2fyy 2d/)yy	.	1ryy	.	.	1ryy	.	.	1ryy	.	.	1ryy	.	.	4dd\	Co	.
8F\yy	.	.	.	.	.	.	.	.	.	.	.	.	.	.	.	.	.
8A\yy	.	.	.	.	.	.	.	.	.	.	.	.	.	.	8dd\	wiecz-	.
8F\Jyy	.	.	.	.	.	.	.	.	.	.	.	.	.	.	8dd\	-nie	.
.	(y<32qqd/LLLyy	<	.	.	.	.	.	.	.	.	.	.	.	.	.	.	.
.	32qqg/JJJyy	.	.	.	.	.	.	.	.	.	.	.	.	.	.	.	.
8D\Lyy	(y8ccn\L)yy	.	.	.	.	.	.	.	.	.	.	.	.	.	(8ccn\L	zdra-	.
8G\yy	8b-X\yy	.	.	.	.	.	.	.	.	.	.	.	.	.	8b-X\J)	.	.
8A\yy	8a\yy	.	.	.	.	.	.	.	.	.	.	.	.	.	8a/	-dza	.
8B-\Jyy	8g\Jyy	[[	.	.	.	.	.	.	.	.	.	.	.	.	8g/	swych	.
!!LO:LB:g=original
=54	=54	=54	=54	=54	=54	=54	=54	=54	=54	=54	=54	=54	=54	=54	=54	=54	=54
*xywh-#4:381,3229,2588,200	*xywh-#4:381,3229,2588,200	*	*xywh-#4:381,3229,2588,200	*	*	*xywh-#4:381,3229,2588,200	*	*	*xywh-#4:381,3229,2588,200	*	*	*xywh-#4:381,3229,2588,200	*	*	*xywh-#4:381,3229,2588,200	*xywh-#4:381,3229,2588,200	*
8AL 8D\yy	4.f/)yy	.	1ryy	.	.	1ryy	.	.	1ryy	.	.	1ryy	.	.	(4.f/	bra-	.
8F\yy	.	.	.	.	.	.	.	.	.	.	.	.	.	.	.	.	.
8A\yy	.	.	.	.	.	.	.	.	.	.	.	.	.	.	.	.	.
8c#X\Jyy	8e/yy	.	.	.	.	.	.	.	.	.	.	.	.	.	8e/)	.	.
4dyy 4A\yy	4f/yy	.	.	.	.	.	.	.	.	.	.	.	.	.	4f/	-ci	.
4G#Xyy 4Fyy 4BBn^\yy	8d/Lyy	.	.	.	.	.	.	.	.	.	.	.	.	.	4r	.	.
.	8dd/Jyy	.	.	.	.	.	.	.	.	.	.	.	.	.	.	.	.
=55	=55	=55	=55	=55	=55	=55	=55	=55	=55	=55	=55	=55	=55	=55	=55	=55	=55
*^	*^	*	*	*	*	*	*	*	*	*	*	*	*	*	*	*	*
*	*	*	*^	*	*	*	*	*	*	*	*	*	*	*	*	*	*	*	*
2Ayy 2F\yy	2Cn\yy	4f/yy	2ccn/yy	2cn\yy	<	1ryy	.	.	1ryy	.	.	1ryy	.	.	1ryy	.	.	4f/	Nie,	.
.	.	(y8e/Lyy	.	.	.	.	.	.	.	.	.	.	.	.	.	.	.	8e/	tyś	.
.	.	8f/Jyy	.	.	.	.	.	.	.	.	.	.	.	.	.	.	.	8f/	nie	.
8C/Lyy	2C\yy	8a/Lyy	2ryyyy	2ryyyy	[	.	.	.	.	.	.	.	.	.	.	.	.	4a/	sio-	.
8E/yy	.	8g/yy	.	.	.	.	.	.	.	.	.	.	.	.	.	.	.	.	.	.
8G/yy	.	8e/yy	.	.	.	.	.	.	.	.	.	.	.	.	.	.	.	8g/	-stra	.
8B-X/Jyy	.	8g/J)yy	.	.	.	.	.	.	.	.	.	.	.	.	.	.	.	8g/	Ma-	.
.	.	.	.	.	.	.	.	.	.	.	.	.	.	.	.	.	.	.	.	.
*	*	*v	*v	*v	*	*	*	*	*	*	*	*	*	*	*	*	*	*	*	*
=56	=56	=56	=56	=56	=56	=56	=56	=56	=56	=56	=56	=56	=56	=56	=56	=56	=56	=56
8C/Lyy	2C\yy	2g/yy	.	1ryy	.	.	1ryy	.	.	1ryy	.	.	1ryy	.	.	2cc^\	-co-	.
8E/yy	.	.	.	.	.	.	.	.	.	.	.	.	.	.	.	.	.	.
8B-/yy	.	.	.	.	.	.	.	.	.	.	.	.	.	.	.	.	.	.
8E/Jyy	.	.	.	.	.	.	.	.	.	.	.	.	.	.	.	.	.	.
4A\yy	4F\yy	4f/yy	.	.	.	.	.	.	.	.	.	.	.	.	.	4f/	-cha!	.
4FF/yy	4ryyyy	8ryy	.	.	.	.	.	.	.	.	.	.	.	.	.	8r	.	.
!	!	!	!	!	!	!	!	!	!	!	!	!	!	!	!	!	!	!LO:DY:a
.	.	8a/yy	.	.	.	.	.	.	.	.	.	.	.	.	.	8a/	Bo	p
*v	*v	*	*	*	*	*	*	*	*	*	*	*	*	*	*	*	*	*
=57	=57	=57	=57	=57	=57	=57	=57	=57	=57	=57	=57	=57	=57	=57	=57	=57	=57
!	!	!LO:DY:rj	!	!	!	!	!	!	!	!	!	!	!	!	!	!	!
8AA\Lyy	2.cc#Xyy 2.ayy 2.e/yy	sfy	1ryy	.	.	1ryy	.	.	1ryy	.	.	1ryy	.	.	4.cc#X\	gdy	.
8C#X\yy	.	.	.	.	.	.	.	.	.	.	.	.	.	.	.	.	.
8E\yy	.	.	.	.	.	.	.	.	.	.	.	.	.	.	.	.	.
8A\Jyy	.	.	.	.	.	.	.	.	.	.	.	.	.	.	8a/	za	.
4AA/yy	.	.	.	.	.	.	.	.	.	.	.	.	.	.	4a/	wol-	.
8.ALyy 8.AA\yy	8.cc#Lyy 8.ayy 8.e/yy	.	.	.	.	.	.	.	.	.	.	.	.	.	8a/	-ność	.
.	.	.	.	.	.	.	.	.	.	.	.	.	.	.	8a/	Eu-	.
16GJkyy 16GG\yy	16cc#Jkyy 16ayy 16e/yy	.	.	.	.	.	.	.	.	.	.	.	.	.	.	.	.
=58	=58	=58	=58	=58	=58	=58	=58	=58	=58	=58	=58	=58	=58	=58	=58	=58	=58
4F\yy	2.ddyy 2.ayy 2.f^\yy	.	1ryy	.	.	1ryy	.	.	1ryy	.	.	1ryy	.	.	(4.dd\	-ro-	.
8A\Lyy	.	.	.	.	.	.	.	.	.	.	.	.	.	.	.	.	.
8F\Jyy	.	.	.	.	.	.	.	.	.	.	.	.	.	.	8a\)	.	.
4D\yy	.	.	.	.	.	.	.	.	.	.	.	.	.	.	4a\	-py	.
!	!	!LO:DY:rj	!	!	!	!	!	!	!	!	!	!	!	!	!	!	!
8.dLyy 8.D\yy	8.ddLyy 8.ayy 8.f/yy	sfy	.	.	.	.	.	.	.	.	.	.	.	.	4r	.	.
16dJkyy 16D\yy	16ddJkyy 16ayy 16f/yy	.	.	.	.	.	.	.	.	.	.	.	.	.	.	.	.
=59	=59	=59	=59	=59	=59	=59	=59	=59	=59	=59	=59	=59	=59	=59	=59	=59	=59
*^	*	*	*	*	*	*	*	*	*	*	*	*	*	*	*	*	*
4A/yy	2Ayy 2AA\yy	2.eeyy 2.cc#Xyy 2.ayy 2.e/yy	sfy	1ryy	.	.	1ryy	.	.	1ryy	.	.	1ryy	.	.	4ee^\	Lud	.
8E/Lyy	.	.	.	.	.	.	.	.	.	.	.	.	.	.	.	8a/	mój	.
8C#X/Jyy	.	.	.	.	.	.	.	.	.	.	.	.	.	.	.	8a/	po-	.
4AA/yy	2ryyyy	.	.	.	.	.	.	.	.	.	.	.	.	.	.	4a/	-świę-	.
8.ALyy 8.AA\yy	.	8.eeLyy 8.cc#yy 8.a 8.e\yy	<	.	.	.	.	.	.	.	.	.	.	.	.	8a/	-ca	.
.	.	.	.	.	.	.	.	.	.	.	.	.	.	.	.	8a/	się	.
16AJkyy 16AA\yy	.	16eeJkyy 16cc#yy 16ayy 16e\yy	[[	.	.	.	.	.	.	.	.	.	.	.	.	.	.	.
*v	*v	*	*	*	*	*	*	*	*	*	*	*	*	*	*	*	*	*
=60	=60	=60	=60	=60	=60	=60	=60	=60	=60	=60	=60	=60	=60	=60	=60	=60	=60
8DD/Lyy	4.ffyy 4.ayy 4.f\yy	>	1ryy	.	.	1ryy	.	.	1ryy	.	.	1ryy	.	.	(4.ff^\	mar-	.
8AA/yy	.	.	.	.	.	.	.	.	.	.	.	.	.	.	.	.	.
8D/yy	.	.	.	.	.	.	.	.	.	.	.	.	.	.	.	.	.
8AA/Jyy	8eeyy 8cc#Xyy 8ayy 8g\yy	.	.	.	.	.	.	.	.	.	.	.	.	.	8ee\)	.	.
4DD/yy	4ddyy 4ayy 4f\yy	]	.	.	.	.	.	.	.	.	.	.	.	.	4dd\	-nie.	.
4ryy	8.a\Lyy	.	.	.	.	.	.	.	.	.	.	.	.	.	4r	.	.
.	16a\Jkyy	.	.	.	.	.	.	.	.	.	.	.	.	.	.	.	.
!!LO:LB:g=original
=61	=61	=61	=61	=61	=61	=61	=61	=61	=61	=61	=61	=61	=61	=61	=61	=61	=61
*xywh-#4:385,3418,2581,233	*xywh-#4:385,3418,2581,233	*	*xywh-#4:385,3418,2581,233	*xywh-#4:385,3418,2581,233	*	*	*xywh-#4:385,3418,2581,233	*	*	*xywh-#4:385,3418,2581,233	*	*	*xywh-#4:385,3418,2581,233	*	*xywh-#4:385,3418,2581,233	*xywh-#4:385,3418,2581,233	*xywh-#4:385,3418,2581,233
!	!	!LO:DY:rj	!	!	!	!	!	!	!	!	!	!	!	!	!	!	!LO:DY:a:rj
2Dyy 2DD/yy	4.ffyy 4.ayy 4.f/yy	fy	1ryy	.	.	1ryy	.	.	1ryy	.	.	1ryy	.	.	2ff\	Ty	f
*	*ped	*	*	*	*	*	*	*	*	*	*	*	*	*	*	*	*
.	.	.	.	.	.	.	.	.	.	.	.	.	.	.	.	.	.
.	8ffyy 8ayy 8f/yy	.	.	.	.	.	.	.	.	.	.	.	.	.	.	.	.
4Ayy 4AA\yy	8.eeLyy 8.ayy 8.e/yy	.	.	.	.	.	.	.	.	.	.	.	.	.	4ee\	li-	.
*	*Xped	*	*	*	*	*	*	*	*	*	*	*	*	*	*	*	*
.	.	.	.	.	.	.	.	.	.	.	.	.	.	.	.	.	.
*	*ped	*	*	*	*	*	*	*	*	*	*	*	*	*	*	*	*
.	16eeKyy 16ayy 16e/yy	.	.	.	.	.	.	.	.	.	.	.	.	.	.	.	.
4AAyy 4AAA/yy	8.eeyy 8.ayy 8.e/yy	.	.	.	.	.	.	.	.	.	.	.	.	.	4ee\	-żąc	.
.	16eeJkyy 16ayy 16e/yy	.	.	.	.	.	.	.	.	.	.	.	.	.	.	.	.
*	*Xped	*	*	*	*	*	*	*	*	*	*	*	*	*	*	*	*
.	.	.	.	.	.	.	.	.	.	.	.	.	.	.	.	.	.
=62	=62	=62	=62	=62	=62	=62	=62	=62	=62	=62	=62	=62	=62	=62	=62	=62	=62
*	*ped	*	*	*	*	*	*	*	*	*	*	*	*	*	*	*	*
4BB-yy 4BBB-/yy	2ddyy 2fyy 2d/yy	.	1ryy	.	.	1ryy	.	.	1ryy	.	.	1ryy	.	.	2dd\	ka-	.
4B-yy 4BB-^\yy	.	.	.	.	.	.	.	.	.	.	.	.	.	.	.	.	.
*	*Xped	*	*	*	*	*	*	*	*	*	*	*	*	*	*	*	*
.	.	.	.	.	.	.	.	.	.	.	.	.	.	.	.	.	.
4Ayy 4AA^\yy	8.ccnLyy 8.fyy 8.c/yy	.	.	.	.	.	.	.	.	.	.	.	.	.	4ccn\	-tów	.
.	16ccKyy 16fyy 16c/yy	.	.	.	.	.	.	.	.	.	.	.	.	.	.	.	.
4Fyy 4FF^\yy	8.ccyy 8.fyy 8.c/yy	.	.	.	.	.	.	.	.	.	.	.	.	.	4cc\	mych	.
.	16ccJkyy 16fyy 16c/yy	.	.	.	.	.	.	.	.	.	.	.	.	.	.	.	.
=63	=63	=63	=63	=63	=63	=63	=63	=63	=63	=63	=63	=63	=63	=63	=63	=63	=63
*	*ped	*	*	*	*	*	*	*	*	*	*	*	*	*	*	*	*
2Eyy 2EE/yy	2b-yy 2gyy 2c/yy	.	1ryy	.	.	1ryy	.	.	1ryy	.	.	1ryy	.	.	2b-^>/	ka-	.
*	*Xped	*	*	*	*	*	*	*	*	*	*	*	*	*	*	*	*
.	.	.	.	.	.	.	.	.	.	.	.	.	.	.	.	.	.
4Fyy 4FF/yy	8.aL 8.f 8.c/yy	.	.	.	.	.	.	.	.	.	.	.	.	.	4a/	-tów	.
.	16aK 16f 16c/yy	.	.	.	.	.	.	.	.	.	.	.	.	.	.	.	.
4Ayy 4AA/yy	8.cc 8.f 8.c/yy	.	.	.	.	.	.	.	.	.	.	.	.	.	4a/	mych	.
.	16aJk 16f 16c/yy	.	.	.	.	.	.	.	.	.	.	.	.	.	.	.	.
=64	=64	=64	=64	=64	=64	=64	=64	=64	=64	=64	=64	=64	=64	=64	=64	=64	=64
*	*ped	*	*	*	*	*	*	*	*	*	*	*	*	*	*	*	*
2C/yy	8gL 8e 8c/yy	.	1ryy	.	.	1ryy	.	.	1ryy	.	.	1ryy	.	.	(2g/	sto-	.
.	16ccL 16c/yy	ffy	.	.	.	.	.	.	.	.	.	.	.	.	.	.	.
.	16ccJJ 16c/yy	.	.	.	.	.	.	.	.	.	.	.	.	.	.	.	.
.	8ccL 8c/yy	.	.	.	.	.	.	.	.	.	.	.	.	.	.	.	.
.	8ccJ 8c/yy	.	.	.	.	.	.	.	.	.	.	.	.	.	.	.	.
4Cyy 4CC/yy	8ccL 8c/yy	.	.	.	.	.	.	.	.	.	.	.	.	.	4cc\)	-py,	.
.	8cc 8c/yy	.	.	.	.	.	.	.	.	.	.	.	.	.	.	.	.
4Cyy 4CC/yy	8cc 8c/yy	.	.	.	.	.	.	.	.	.	.	.	.	.	4r	.	.
.	8b-J 8B-^/yy	.	.	.	.	.	.	.	.	.	.	.	.	.	.	.	.
*	*Xped	*	*	*	*	*	*	*	*	*	*	*	*	*	*	*	*
.	.	.	.	.	.	.	.	.	.	.	.	.	.	.	.	.	.
=65	=65	=65	=65	=65	=65	=65	=65	=65	=65	=65	=65	=65	=65	=65	=65	=65	=65
!	!	!	!	!	!	!	!	!	!	!	!	!	!	!	!	!	!LO:DY:a
2C#Xyy 2CC#X/yy	16ryy	fpy	1ryy	.	.	1ryy	.	.	1ryy	.	.	1ryy	.	.	8r	.	mf
.	(y16A/LLyy	.	.	.	.	.	.	.	.	.	.	.	.	.	.	.	.
*	*ped	*	*	*	*	*	*	*	*	*	*	*	*	*	*	*	*
.	16e/yy	.	.	.	.	.	.	.	.	.	.	.	.	.	8a/	Wy-	.
.	16g/JJyy	.	.	.	.	.	.	.	.	.	.	.	.	.	.	.	.
.	16a/LLyy	.	.	.	.	.	.	.	.	.	.	.	.	.	8a/	-szy-	.
.	16g/yy	.	.	.	.	.	.	.	.	.	.	.	.	.	.	.	.
.	16e/yy	.	.	.	.	.	.	.	.	.	.	.	.	.	8a/	-dzasz	.
.	16A/JJ)yy	.	.	.	.	.	.	.	.	.	.	.	.	.	.	.	.
2Ayy 2AA\yy	16ryy	.	.	.	.	.	.	.	.	.	.	.	.	.	4cc#X^>/	o-	.
.	(y16e/LLyy	.	.	.	.	.	.	.	.	.	.	.	.	.	.	.	.
.	16g/yy	.	.	.	.	.	.	.	.	.	.	.	.	.	.	.	.
.	16a/JJyy	.	.	.	.	.	.	.	.	.	.	.	.	.	.	.	.
.	16cc#X/LLyy	.	.	.	.	.	.	.	.	.	.	.	.	.	8a/	-fiar	.
.	16a/yy	.	.	.	.	.	.	.	.	.	.	.	.	.	.	.	.
.	16g/yy	.	.	.	.	.	.	.	.	.	.	.	.	.	8a/	mę-	.
*	*Xped	*	*	*	*	*	*	*	*	*	*	*	*	*	*	*	*
.	16e/JJ)yy	.	.	.	.	.	.	.	.	.	.	.	.	.	.	.	.
=66	=66	=66	=66	=66	=66	=66	=66	=66	=66	=66	=66	=66	=66	=66	=66	=66	=66
2DD/yy	16ryy	.	1ryy	.	.	1ryy	.	.	1ryy	.	.	1ryy	.	.	2dd^\	-czar-	.
.	(y16d/LLyy	.	.	.	.	.	.	.	.	.	.	.	.	.	.	.	.
.	16f/yy	.	.	.	.	.	.	.	.	.	.	.	.	.	.	.	.
.	16a/JJyy	.	.	.	.	.	.	.	.	.	.	.	.	.	.	.	.
.	16dd/LLyy	.	.	.	.	.	.	.	.	.	.	.	.	.	.	.	.
.	16a/yy	.	.	.	.	.	.	.	.	.	.	.	.	.	.	.	.
.	16f/yy	.	.	.	.	.	.	.	.	.	.	.	.	.	.	.	.
.	16a/JJyy	.	.	.	.	.	.	.	.	.	.	.	.	.	.	.	.
4D\yy	4d/)yy	.	.	.	.	.	.	.	.	.	.	.	.	.	4a/	-nie!	.
4F\yy	(y16dd\LLyy	.	.	.	.	.	.	.	.	.	.	.	.	.	4r	.	.
.	16cc#X\yy	.	.	.	.	.	.	.	.	.	.	.	.	.	.	.	.
.	16een\yy	.	.	.	.	.	.	.	.	.	.	.	.	.	.	.	.
.	16dd\JJ)yy	.	.	.	.	.	.	.	.	.	.	.	.	.	.	.	.
=67	=67	=67	=67	=67	=67	=67	=67	=67	=67	=67	=67	=67	=67	=67	=67	=67	=67
2A\yy	16ryy	.	1ryy	.	.	1ryy	.	.	1ryy	.	.	1ryy	.	.	8r	.	.
.	(y16e/LLyy	.	.	.	.	.	.	.	.	.	.	.	.	.	.	.	.
.	16g/yy	.	.	.	.	.	.	.	.	.	.	.	.	.	8a/	Wy-	.
.	16a/JJyy	.	.	.	.	.	.	.	.	.	.	.	.	.	.	.	.
.	16cc#X/LLyy	.	.	.	.	.	.	.	.	.	.	.	.	.	8a/	-szy-	.
.	16a/yy	.	.	.	.	.	.	.	.	.	.	.	.	.	.	.	.
.	16g/yy	.	.	.	.	.	.	.	.	.	.	.	.	.	8a/	-dzasz	.
.	16e/JJ)yy	.	.	.	.	.	.	.	.	.	.	.	.	.	.	.	.
2AA/yy	16ryy	.	.	.	.	.	.	.	.	.	.	.	.	.	4ee^\	o-	.
.	(y16e/LLyy	.	.	.	.	.	.	.	.	.	.	.	.	.	.	.	.
.	16g/yy	.	.	.	.	.	.	.	.	.	.	.	.	.	.	.	.
.	16a/JJyy	.	.	.	.	.	.	.	.	.	.	.	.	.	.	.	.
.	16cc#/LLyy	.	.	.	.	.	.	.	.	.	.	.	.	.	8a/	-fiar	.
.	16a/yy	.	.	.	.	.	.	.	.	.	.	.	.	.	.	.	.
.	16g/yy	.	.	.	.	.	.	.	.	.	.	.	.	.	8a/	mę-	.
.	16e/JJ)yy	.	.	.	.	.	.	.	.	.	.	.	.	.	.	.	.
=68	=68	=68	=68	=68	=68	=68	=68	=68	=68	=68	=68	=68	=68	=68	=68	=68	=68
2D/yy	16ryy	.	1ryy	.	.	1ryy	.	.	1ryy	.	.	1ryy	.	.	2ff^\	-czar-	.
.	(y16d/LLyy	.	.	.	.	.	.	.	.	.	.	.	.	.	.	.	.
.	16f/yy	.	.	.	.	.	.	.	.	.	.	.	.	.	.	.	.
.	16a/JJyy	.	.	.	.	.	.	.	.	.	.	.	.	.	.	.	.
.	16dd\LLyy	.	.	.	.	.	.	.	.	.	.	.	.	.	.	.	.
.	16f\yy	.	.	.	.	.	.	.	.	.	.	.	.	.	.	.	.
.	16a\yy	.	.	.	.	.	.	.	.	.	.	.	.	.	.	.	.
.	16dd\JJyy	.	.	.	.	.	.	.	.	.	.	.	.	.	.	.	.
4DD/yy	16ff\LLyy	.	.	.	.	.	.	.	.	.	.	.	.	.	4dd\	-nie!	.
.	16dd\yy	.	.	.	.	.	.	.	.	.	.	.	.	.	.	.	.
.	16a\yy	.	.	.	.	.	.	.	.	.	.	.	.	.	.	.	.
.	16f\JJ)yy	.	.	.	.	.	.	.	.	.	.	.	.	.	.	.	.
4ryy	4d^>/yy	.	.	.	.	.	.	.	.	.	.	.	.	.	4r	.	.
!!LO:PB:g=original
=69||	=69||	=69||	=69||	=69||	=69||	=69||	=69||	=69||	=69||	=69||	=69||	=69||	=69||	=69||	=69||	=69||	=69||
*^	*	*	*	*	*	*	*	*	*	*	*	*	*	*	*	*	*
*xywh-#5:226,225,2495,736	*xywh-#5:226,225,2495,736	*xywh-#5:226,225,2495,736	*	*xywh-#5:226,225,2495,736	*xywh-#5:226,225,2495,736	*	*xywh-#5:226,225,2495,736	*xywh-#5:226,225,2495,736	*	*xywh-#5:226,225,2495,736	*xywh-#5:226,225,2495,736	*	*xywh-#5:226,225,2495,736	*xywh-#5:226,225,2495,736	*	*xywh-#5:226,225,2495,736	*	*
8D/Lyy	1Dyy	(y4.f#X^/yy	.	4r	.	.	4r	.	.	4r	.	.	4r	.	.	1ryy	.	.
!	!	!LO:TX:b:t=cres_cen_do:problem=dynamics with extention lines	!LO:HP:b:t=cres_cen_do	!	!	!	!	!	!	!	!	!	!	!	!	!	!	!
8A/yy	.	.	<	.	.	.	.	.	.	.	.	.	.	.	.	.	.	.
8F#X/yy	.	.	.	4D/	Bo	.	4F#X/	Bo	.	4A/	Bo	.	4dd\	Bo	.	.	.	.
8A/Jyy	.	8dd\)yy	.	.	.	.	.	.	.	.	.	.	.	.	.	.	.	.
8d/Lyy	.	4dd\yy	.	4.D/	gdy	.	4.F#/	gdy	.	4.A/	gdy	.	4.dd\	gdy	.	.	.	.
8A/yy	.	.	.	.	.	.	.	.	.	.	.	.	.	.	.	.	.	.
8F#/yy	.	(y16dd\LLyy	.	.	.	.	.	.	.	.	.	.	.	.	.	.	.	.
.	.	16cc#X\yy	.	.	.	.	.	.	.	.	.	.	.	.	.	.	.	.
8A/Jyy	.	16ee-X\yy	.	8D/	za	.	8F#/	za	.	8A/	za	.	8dd\	za	.	.	.	.
.	.	16dd\JJ)yy	.	.	.	.	.	.	.	.	.	.	.	.	.	.	.	.
=70	=70	=70	=70	=70	=70	=70	=70	=70	=70	=70	=70	=70	=70	=70	=70	=70	=70	=70
!	!	!	!	!	!	!	!	!	!	!	!	!	!LO:TX:a:t=cre_cen_do:problem=dynamics with extention lines	!	!LO:HP:a:t=cres_cen_do	!	!	!
8D/Lyy	1Dyy	(y4.g^/yy	.	2D/	wol-	.	2G/	wol-	.	2B-\	wol-	.	2g\	wol-	<	1ryy	.	.
8B-/yy	.	.	.	.	.	.	.	.	.	.	.	.	.	.	.	.	.	.
8G/yy	.	.	.	.	.	.	.	.	.	.	.	.	.	.	.	.	.	.
8B-/Jyy	.	8dd\)yy	.	.	.	.	.	.	.	.	.	.	.	.	.	.	.	.
8d/Lyy	.	4dd\yy	.	4D/	-ność	.	4G/	-ność	.	4B-\	-ność	.	4dd\	-ność	.	.	.	.
8B-/yy	.	.	.	.	.	.	.	.	.	.	.	.	.	.	.	.	.	.
8G/yy	.	(y16dd\LLyy	.	4D/	za	.	4G/	za	.	4B-\	za	.	4dd\	za	.	.	.	.
.	.	16cc#X\yy	.	.	.	.	.	.	.	.	.	.	.	.	.	.	.	.
8B-/Jyy	.	16ee-X\yy	.	.	.	.	.	.	.	.	.	.	.	.	.	.	.	.
.	.	16dd\JJ)yy	.	.	.	.	.	.	.	.	.	.	.	.	.	.	.	.
=71	=71	=71	=71	=71	=71	=71	=71	=71	=71	=71	=71	=71	=71	=71	=71	=71	=71	=71
8D/Lyy	1Dyy	4.g#X/yy	.	2D/	wol-	.	2G#X 2E/	wol-	.	2B\	wol-	.	2g#X\	wol-	.	1ryy	.	.
8Bn/yy	.	.	[	.	.	.	.	.	.	.	.	.	.	.	.	.	.	.
8G#X/yy	.	.	.	.	.	.	.	.	.	.	.	.	.	.	.	.	.	.
8B/Jyy	.	8een\yy	.	.	.	.	.	.	.	.	.	.	.	.	.	.	.	.
8d/Lyy	.	4ee\yy	.	4.D/	-ność	.	4.G# 4.E/	-ność	.	4.B\	-ność	.	4.ee\	-ność	.	.	.	.
8B/yy	.	.	.	.	.	.	.	.	.	.	.	.	.	.	.	.	.	.
8G#/yy	.	(y16ee\LLyy	.	.	.	.	.	.	.	.	.	.	.	.	.	.	.	.
.	.	16dd#X\yy	.	.	.	.	.	.	.	.	.	.	.	.	.	.	.	.
8B/Jyy	.	16ff\yy	.	8D/	Eu-	.	8G# 8E/	Eu-	.	8B\	Eu-	.	8ee\	Eu-	[[	.	.	.
.	.	16ee\JJ)yy	.	.	.	.	.	.	.	.	.	.	.	.	.	.	.	.
=72	=72	=72	=72	=72	=72	=72	=72	=72	=72	=72	=72	=72	=72	=72	=72	=72	=72	=72
8D/Lyy	2.D\yy	4a\yy	fy	2AA/	-ro-	.	2A 2E/	-ro-	.	2A/	-ro-	.	2a/	-ro-	.	1ryy	.	.
8E/yy	.	.	.	.	.	.	.	.	.	.	.	.	.	.	.	.	.	.
!	!	!LO:TX:a:t=rall.	!	!	!	!	!	!	!	!	!	!	!	!	!	!	!	!
8G/yy	.	8cc#X\Lyy	.	.	.	.	.	.	.	.	.	.	.	.	.	.	.	.
8A/Jyy	.	8ee\Jyy	.	.	.	.	.	.	.	.	.	.	.	.	.	.	.	.
8c#X/Lyy	.	8aa\Lyy	.	4AA/	-py	.	4A/	-py	.	4c#X\	-py	.	4ee\	-py	.	.	.	.
8A/yy	.	8ee\yy	.	.	.	.	.	.	.	.	.	.	.	.	.	.	.	.
8G/yy	4AA;\yy	8cc#\yy	.	4r;	.	.	4r;	.	.	4r;	.	.	4r;	.	.	.	.	.
8E/Jyy	.	8a;\Jyy	.	.	.	.	.	.	.	.	.	.	.	.	.	.	.	.
=73	=73	=73	=73	=73	=73	=73	=73	=73	=73	=73	=73	=73	=73	=73	=73	=73	=73	=73
.	.	(y16qqd/LLyy	.	.	.	.	.	.	.	.	.	.	.	.	.	.	.	.
.	.	16qqf/JJyy	fy	.	.	.	.	.	.	.	.	.	.	.	.	.	.	.
!	!	!	!	!	!	!LO:DY:a:rj	!	!	!LO:DY:a:rj	!	!	!LO:DY:a:rj	!	!	!LO:DY:a:rj	!	!	!
8F/Lyy	2D\yy	2dd\)yy	.	4D\	Pols-	f	4F/	Pols-	f	4d\	Pol-	f	4dd\	Pols-	f	1ryy	.	.
8A/yy	.	.	.	.	.	.	.	.	.	.	.	.	.	.	.	.	.	.
8d/yy	.	.	.	8D\	-ka	.	8F/	-ka	.	8d\	-ska	.	8dd\	-ka	.	.	.	.
8A/Jyy	.	.	.	8D\	poś-	.	8F/	poś-	.	8d\	po-	.	8dd\	poś-	.	.	.	.
8G/Lyy	2D\yy	(y8ccn/Lyy	.	4D\	-wię-	.	4G/	-wię-	.	(8c\L	-świę-	.	(8ccn\L	-wię-	.	.	.	.
8B-/yy	.	8b-/yy	.	.	.	.	.	.	.	8B-\J)	.	.	8b-\J)	.	.	.	.	.
8d/yy	.	8a/yy	.	8D\	-ca	.	8F/	-ca	.	8A\	-ca	.	8a\	-ca	.	.	.	.
8B-/Jyy	.	8g/J)yy	.	8D\	się	.	8E/	się	.	8G\	się	.	8g\	się	.	.	.	.
*v	*v	*	*	*	*	*	*	*	*	*	*	*	*	*	*	*	*	*
=74	=74	=74	=74	=74	=74	=74	=74	=74	=74	=74	=74	=74	=74	=74	=74	=74	=74
8D\Lyy	4.f/yy	.	2D\	mar-	.	2A 2D/	mar-	.	(4F/	mar-	.	(4.f/	mar-	.	1ryy	.	.
8F\yy	.	.	.	.	.	.	.	.	.	.	.	.	.	.	.	.	.
8A\yy	.	.	.	.	.	.	.	.	8f\L)	.	.	.	.	.	.	.	.
8c#X\Jyy	8e/yy	.	.	.	.	.	.	.	8e\J	.	.	8e/)	.	.	.	.	.
4d\yy	8d/Lyy	.	4D\	-nie,	.	4A 4F/	-nie,	.	4d\	-nie,	.	4d/	-nie,	.	.	.	.
.	8f/yy	.	.	.	.	.	.	.	.	.	.	.	.	.	.	.	.
4D\yy	8b-/yy	.	4r	.	.	4r	.	.	4r	.	.	4r	.	.	.	.	.
.	8a/Jyy	.	.	.	.	.	.	.	.	.	.	.	.	.	.	.	.
!!LO:LB:g=original
=75	=75	=75	=75	=75	=75	=75	=75	=75	=75	=75	=75	=75	=75	=75	=75	=75	=75
*xywh-#5:147,938,2567,750	*xywh-#5:147,938,2567,750	*	*xywh-#5:147,938,2567,750	*xywh-#5:147,938,2567,750	*xywh-#5:147,938,2567,750	*xywh-#5:147,938,2567,750	*xywh-#5:147,938,2567,750	*xywh-#5:147,938,2567,750	*xywh-#5:147,938,2567,750	*xywh-#5:147,938,2567,750	*xywh-#5:147,938,2567,750	*xywh-#5:147,938,2567,750	*xywh-#5:147,938,2567,750	*xywh-#5:147,938,2567,750	*xywh-#5:147,938,2567,750	*	*
!	!	!	!	!	!LO:DY:a:rj	!	!	!LO:DY:a:rj	!	!	!LO:DY:a:rj	!	!	!LO:DY:a:rj	!	!	!
2A\yy	8ryy	.	4AA/	Ty,	p	4A/	Ty,	p	4A/	Ty,	p	4a/	Ty,	p	1ryy	.	.
.	(y8e/Lyy	.	.	.	.	.	.	.	.	.	.	.	.	.	.	.	.
.	8cc#X 8a/yy	.	8E\	li-	.	8E/	li-	.	8A/	li-	.	8a/	li-	.	.	.	.
.	8e/Jyy	.	8C#X/	-żąc	.	8E/	-żąc	.	8A/	-żąc	.	8a/	-żąc	.	.	.	.
4AA/yy	8ee/Lyy	.	4AA/	ka-	.	4A/	ka-	.	4A/	ka-	.	4cc#X\	ka-	.	.	.	.
.	8cc#/yy	.	.	.	.	.	.	.	.	.	.	.	.	.	.	.	.
4ryy	8b-/yy	.	8AA/	-tów	.	8A/	-tów	.	8c#X\	-tów	.	8a/	-tów	.	.	.	.
.	8a/J)yy	.	8AA/	jéj	.	8A/	jéj	.	8c#\	jéj	.	8a/	jéj	.	.	.	.
=76	=76	=76	=76	=76	=76	=76	=76	=76	=76	=76	=76	=76	=76	=76	=76	=76	=76
2D/yy	8ryy	.	2D\	sto-	.	2F/	sto-	.	2d\	sto-	.	2dd^\	sto-	.	1ryy	.	.
.	8f\Lyy	.	.	.	.	.	.	.	.	.	.	.	.	.	.	.	.
.	8a\yy	.	.	.	.	.	.	.	.	.	.	.	.	.	.	.	.
.	8dd\Jyy	.	.	.	.	.	.	.	.	.	.	.	.	.	.	.	.
4Ayy 4AA/yy	8cc#X\Lyy	.	4D\	-py,	.	4A/	-py,	.	4A/	-py,	.	4a\	-py,	.	.	.	.
.	8a\yy	.	.	.	.	.	.	.	.	.	.	.	.	.	.	.	.
4ryy	8dd\yy	.	4r	.	.	4r	.	.	4r	.	.	4r	.	.	.	.	.
.	8ee\Jyy	.	.	.	.	.	.	.	.	.	.	.	.	.	.	.	.
=77	=77	=77	=77	=77	=77	=77	=77	=77	=77	=77	=77	=77	=77	=77	=77	=77	=77
*^	*	*	*	*	*	*	*	*	*	*	*	*	*	*	*	*	*
.	.	(y16qqf/LLyy	.	.	.	.	.	.	.	.	.	.	.	.	.	.	.	.
.	.	16qqa/JJyy	fy	.	.	.	.	.	.	.	.	.	.	.	.	.	.	.
!	!	!	!	!	!	!LO:DY:a:rj	!	!	!LO:DY:a:rj	!	!	!LO:DY:a:rj	!	!	!LO:DY:a:rj	!	!	!
8D/Lyy	2D\yy	4ffyy 4ccyy 4a\)yy	.	4.D\	Wy-	f	4.d\	Wy-	f	4.A/	Wy-	f	4.ff^\	Wy-	f	1ryy	.	.
8F/yy	.	.	.	.	.	.	.	.	.	.	.	.	.	.	.	.	.	.
8A/yy	.	(y4ee\yy	.	.	.	.	.	.	.	.	.	.	.	.	.	.	.	.
8c#X/Jyy	.	.	.	8D\	-szy-	.	8A/	-szy-	.	8A/	-szy-	.	8ee\	-szy-	.	.	.	.
2ryyyy	8d\Lyy	8dd\Lyy	.	8D\	-dzasz	.	8F/	-dzasz	.	8A/	-dzasz	.	8dd\	-dzasz	.	.	.	.
.	8F#X^\yy	8ccn\yy	.	8F#X\	o-	.	8F#X/	o-	.	8A/	o-	.	8ccn\	o-	.	.	.	.
.	8G\yy	8b-\yy	.	8G\	-fiar	.	8G/	-fiar	.	8B-/	-fiar	.	8b-\	-fiar	.	.	.	.
.	8D^\Jyy	8a\J)yy	.	8D\	mę-	.	8F#/	mę-	.	8A/	mę-	.	8a\	mę-	.	.	.	.
*v	*v	*	*	*	*	*	*	*	*	*	*	*	*	*	*	*	*	*
=78	=78	=78	=78	=78	=78	=78	=78	=78	=78	=78	=78	=78	=78	=78	=78	=78	=78
8GG/Lyy	(y4.cc^\yy	.	2GG/	-czar-	.	2G/	-czar-	.	2G/	-czar-	.	(4.cc\	-czar-	.	1ryy	.	.
8BB-/yy	.	.	.	.	.	.	.	.	.	.	.	.	.	.	.	.	.
8D/yy	.	.	.	.	.	.	.	.	.	.	.	.	.	.	.	.	.
8G/Jyy	8b-\)yy	.	.	.	.	.	.	.	.	.	.	8b-\)	.	.	.	.	.
4B-\yy	4g\yy	.	4GG/	-nie!	.	4G/	-nie!	.	4G/	-nie!	.	4g\	-nie!	.	.	.	.
4B-yy 4BB-\yy	4ddyy 4g#Xyy 4f/yy	sfy	4r	.	.	4r	.	.	4r	.	.	4r	.	.	.	.	.
=79	=79	=79	=79	=79	=79	=79	=79	=79	=79	=79	=79	=79	=79	=79	=79	=79	=79
*^	*	*	*	*	*	*	*	*	*	*	*	*	*	*	*	*	*
!	!	!	!	!	!	!LO:DY:a:rj	!	!	!LO:DY:a:rj	!	!	!LO:DY:a:rj	!	!	!LO:DY:a:rj	!	!	!
8AA/Lyy	2AA\yy	(y2ayy 2f/yy	.	4AA/	Wy-	p	4Fn/	Wy-	p	4A\	Wy-	p	4a\	Wy-	p	1ryy	.	.
8D/yy	.	.	.	.	.	.	.	.	.	.	.	.	.	.	.	.	.	.
8F/yy	.	.	.	8AA/	-szy-	.	8F/	-szy-	.	8A\	-szy-	.	8a\	-szy-	.	.	.	.
8A/Jyy	.	.	.	8AA/	-dzasz	.	8F/	-dzasz	.	8A\	-dzasz	.	8a\	-dzasz	.	.	.	.
.	.	8qqa/yy	.	.	.	.	.	.	.	.	.	.	.	.	.	.	.	.
8AA/Lyy	2AA\yy	4ffyy 4a\yy	.	4AA/	o-	.	4A/	o-	.	4d\	o-	.	4ff^\	o-	.	.	.	.
8C#X/yy	.	.	.	.	.	.	.	.	.	.	.	.	.	.	.	.	.	.
8E/yy	.	4eeyy 4g\)yy	.	8AA/	-fiar	.	8A/	-fiar	.	8c#X\	-fiar	.	8ee\	-fiar	.	.	.	.
8A/Jyy	.	.	.	8AA/	mę-	.	8A/	mę-	.	8c#\	mę-	.	8ee\	mę-	.	.	.	.
=80	=80	=80	=80	=80	=80	=80	=80	=80	=80	=80	=80	=80	=80	=80	=80	=80	=80	=80
*	*	*^	*	*	*	*	*	*	*	*	*	*	*	*	*	*	*	*
2D/yy	8D\Lyy	(y2eeyy 2cc#Xyy 2a/yy	(y<2g\yy	sfy	2AA/	-czar-	.	(4A/	-czar-	.	2c#X\	-czar-	.	2ee^\	-czar-	.	1ryy	.	.
.	8G\yy	.	.	.	.	.	.	.	.	.	.	.	.	.	.	.	.	.	.
.	8A\yy	.	.	.	.	.	.	4G/)	.	.	.	.	.	.	.	.	.	.	.
.	8G\Jyy	.	.	.	.	.	.	.	.	.	.	.	.	.	.	.	.	.	.
4ryyyy	4dyy 4D\yy	4ddyy 4a)yy 4f/)yy	4ryyyy	.	4D/	-nie!	.	4F/	-nie!	.	4d\	-nie!	.	4dd\	-nie!	.	.	.	.
!	!	!	!	!	!	!	!	!	!	!	!	!	!	!LO:TX:a:t=Rall. adlib.	!	!	!	!	!
8.AALyy 8.AAA/yy	4ryyyy	8.aLyy 8.A/yy	4ryyyy	.	4r	.	.	4r	.	.	4r	.	.	4r	.	.	.	.	.
16AAJkyy 16AAA/yy	.	16aJkyy 16A/yy	.	.	.	.	.	.	.	.	.	.	.	.	.	.	.	.	.
*v	*v	*	*	*	*	*	*	*	*	*	*	*	*	*	*	*	*	*	*
=81	=81	=81	=81	=81	=81	=81	=81	=81	=81	=81	=81	=81	=81	=81	=81	=81	=81	=81
*tremolo	*	*	*	*	*	*	*	*	*	*	*	*	*	*	*	*	*	*
!	!	!	!LO:DY:rj	!	!	!	!	!	!	!	!	!	!	!	!	!	!	!
32AAA/LLLyy	2ryyyy	2ayy 2eyy 2c#X/yy	ffy	2AA/	Vae	f	2A/	Vae	f	4.A\	Vae	f	2a\	Vae	.	1ryy	.	.
32AA/yy	.	.	.	.	.	.	.	.	.	.	.	.	.	.	.	.	.	.
32AAA/yy	.	.	.	.	.	.	.	.	.	.	.	.	.	.	.	.	.	.
32AA/yy	.	.	.	.	.	.	.	.	.	.	.	.	.	.	.	.	.	.
32AAA/yy	.	.	.	.	.	.	.	.	.	.	.	.	.	.	.	.	.	.
32AA/yy	.	.	.	.	.	.	.	.	.	.	.	.	.	.	.	.	.	.
32AAA/yy	.	.	.	.	.	.	.	.	.	.	.	.	.	.	.	.	.	.
32AA/yy	.	.	.	.	.	.	.	.	.	.	.	.	.	.	.	.	.	.
!	!	!LO:TX:a:t=Rall. Colla voce	!	!	!	!	!	!	!	!	!	!	!	!	!	!	!	!
32AAA/yy	.	.	.	.	.	.	.	.	.	.	.	.	.	.	.	.	.	.
32AA/yy	.	.	.	.	.	.	.	.	.	.	.	.	.	.	.	.	.	.
32AAA/yy	.	.	.	.	.	.	.	.	.	.	.	.	.	.	.	.	.	.
32AA/yy	.	.	.	.	.	.	.	.	.	.	.	.	.	.	.	.	.	.
32AAA/yy	.	.	.	.	.	.	.	.	.	8c#X\	.	.	.	.	.	.	.	.
32AA/yy	.	.	.	.	.	.	.	.	.	.	.	.	.	.	.	.	.	.
32AAA/yy	.	.	.	.	.	.	.	.	.	.	.	.	.	.	.	.	.	.
32AA/JJJyy	.	.	.	.	.	.	.	.	.	.	.	.	.	.	.	.	.	.
32AAA/LLLyy	4b-X/yy	2gyy 2e\yy	.	2AA/	vic-	.	2A/	vic-	.	4e\	vic-	.	(8cc#X\L	vic-	.	.	.	.
32AA/yy	.	.	.	.	.	.	.	.	.	.	.	.	.	.	.	.	.	.
32AAA/yy	.	.	.	.	.	.	.	.	.	.	.	.	.	.	.	.	.	.
32AA/yy	.	.	.	.	.	.	.	.	.	.	.	.	.	.	.	.	.	.
32AAA/yy	.	.	.	.	.	.	.	.	.	.	.	.	8ee\	.	.	.	.	.
32AA/yy	.	.	.	.	.	.	.	.	.	.	.	.	.	.	.	.	.	.
32AAA/yy	.	.	.	.	.	.	.	.	.	.	.	.	.	.	.	.	.	.
32AA/yy	.	.	.	.	.	.	.	.	.	.	.	.	.	.	.	.	.	.
32AAA/yy	8a/Lyy	.	.	.	.	.	.	.	.	4c#\	.	.	8aa\J	.	.	.	.	.
32AA/yy	.	.	.	.	.	.	.	.	.	.	.	.	.	.	.	.	.	.
32AAA/yy	.	.	.	.	.	.	.	.	.	.	.	.	.	.	.	.	.	.
32AA/yy	.	.	.	.	.	.	.	.	.	.	.	.	.	.	.	.	.	.
32AAA/yy	8g/Jyy	.	.	.	.	.	.	.	.	.	.	.	8cc#\)	.	.	.	.	.
32AA/yy	.	.	.	.	.	.	.	.	.	.	.	.	.	.	.	.	.	.
32AAA/yy	.	.	.	.	.	.	.	.	.	.	.	.	.	.	.	.	.	.
32AA/JJJyy	.	.	.	.	.	.	.	.	.	.	.	.	.	.	.	.	.	.
*	*v	*v	*	*	*	*	*	*	*	*	*	*	*	*	*	*	*	*
=82	=82	=82	=82	=82	=82	=82	=82	=82	=82	=82	=82	=82	=82	=82	=82	=82	=82
32DD/LLLyy	2ddyy 2fyy 2d/yy	.	2D;/	-tis!	.	2F;/	-tis!	.	2d;\	-tis!	.	2dd;\	-tis!	.	1ryy	.	.
32D/yy	.	.	.	.	.	.	.	.	.	.	.	.	.	.	.	.	.
32DD/yy	.	.	.	.	.	.	.	.	.	.	.	.	.	.	.	.	.
32D/yy	.	.	.	.	.	.	.	.	.	.	.	.	.	.	.	.	.
32DD/yy	.	.	.	.	.	.	.	.	.	.	.	.	.	.	.	.	.
32D/yy	.	.	.	.	.	.	.	.	.	.	.	.	.	.	.	.	.
32DD/yy	.	.	.	.	.	.	.	.	.	.	.	.	.	.	.	.	.
32D/yy	.	.	.	.	.	.	.	.	.	.	.	.	.	.	.	.	.
32DD/yy	.	.	.	.	.	.	.	.	.	.	.	.	.	.	.	.	.
32D/yy	.	.	.	.	.	.	.	.	.	.	.	.	.	.	.	.	.
32DD/yy	.	.	.	.	.	.	.	.	.	.	.	.	.	.	.	.	.
32D/yy	.	.	.	.	.	.	.	.	.	.	.	.	.	.	.	.	.
32DD/yy	.	.	.	.	.	.	.	.	.	.	.	.	.	.	.	.	.
32D/yy	.	.	.	.	.	.	.	.	.	.	.	.	.	.	.	.	.
32DD/yy	.	.	.	.	.	.	.	.	.	.	.	.	.	.	.	.	.
32D/JJJyy	.	.	.	.	.	.	.	.	.	.	.	.	.	.	.	.	.
32DD/LLLyy	4.ddyy 4.fyy 4.d/yy	.	2r	.	.	2r	.	.	2r	.	.	2r	.	.	.	.	.
32D/yy	.	.	.	.	.	.	.	.	.	.	.	.	.	.	.	.	.
32DD/yy	.	.	.	.	.	.	.	.	.	.	.	.	.	.	.	.	.
32D/yy	.	.	.	.	.	.	.	.	.	.	.	.	.	.	.	.	.
32DD/yy	.	.	.	.	.	.	.	.	.	.	.	.	.	.	.	.	.
32D/yy	.	.	.	.	.	.	.	.	.	.	.	.	.	.	.	.	.
32DD/yy	.	.	.	.	.	.	.	.	.	.	.	.	.	.	.	.	.
32D/yy	.	.	.	.	.	.	.	.	.	.	.	.	.	.	.	.	.
32DD/yy	.	.	.	.	.	.	.	.	.	.	.	.	.	.	.	.	.
32D/yy	.	.	.	.	.	.	.	.	.	.	.	.	.	.	.	.	.
32DD/yy	.	.	.	.	.	.	.	.	.	.	.	.	.	.	.	.	.
32D/yy	.	.	.	.	.	.	.	.	.	.	.	.	.	.	.	.	.
32DD/yy	8ddyy 8fyy 8d/yy	.	.	.	.	.	.	.	.	.	.	.	.	.	.	.	.
32D/yy	.	.	.	.	.	.	.	.	.	.	.	.	.	.	.	.	.
32DD/yy	.	.	.	.	.	.	.	.	.	.	.	.	.	.	.	.	.
32D/JJJyy	.	.	.	.	.	.	.	.	.	.	.	.	.	.	.	.	.
*Xtremolo	*	*	*	*	*	*	*	*	*	*	*	*	*	*	*	*	*
!!LO:PB:g=original
=83	=83	=83	=83	=83	=83	=83	=83	=83	=83	=83	=83	=83	=83	=83	=83	=83	=83
!	!	!LO:DY:rj	!	!	!	!	!	!	!	!	!	!	!	!	!	!	!
4Dyy 4DD/yy	4ffyy 4ayy 4f/yy	fy	1ryy	.	.	1ryy	.	.	1ryy	.	.	1ryy	.	.	1ryy	.	.
4Ayy 4AA^\yy	4eeyy 4cc#Xyy 4ayy 4e/yy	.	.	.	.	.	.	.	.	.	.	.	.	.	.	.	.
4B-yy 4BB-^\yy	4ddyy 4fyy 4d/yy	.	.	.	.	.	.	.	.	.	.	.	.	.	.	.	.
4Ayy 4AA^\yy	4ccnyy 4fyy 4c/yy	.	.	.	.	.	.	.	.	.	.	.	.	.	.	.	.
=84	=84	=84	=84	=84	=84	=84	=84	=84	=84	=84	=84	=84	=84	=84	=84	=84	=84
4Gyy 4GG^\yy	4b-yy 4eyy 4c/yy	.	1ryy	.	.	1ryy	.	.	1ryy	.	.	1ryy	.	.	1ryy	.	.
4Fyy 4FF^\yy	4ayy 4fyy 4c/yy	.	.	.	.	.	.	.	.	.	.	.	.	.	.	.	.
4.Eyy 4.EE^>/yy	4.cc#Xyy 4.gyy 4.e/yy	.	.	.	.	.	.	.	.	.	.	.	.	.	.	.	.
8Dyy 8DD^>/yy	8ddyy 8f/yy	.	.	.	.	.	.	.	.	.	.	.	.	.	.	.	.
=85	=85	=85	=85	=85	=85	=85	=85	=85	=85	=85	=85	=85	=85	=85	=85	=85	=85
*	*^	*	*	*	*	*	*	*	*	*	*	*	*	*	*	*	*
2Dyy 2DD/yy	2ddyy 2ayy 2f/yy	2ryyyy	.	1ryy	.	.	1ryy	.	.	1ryy	.	.	1ryy	.	.	1ryy	.	.
4.AA/yy	2ryy	4ryyyy	.	.	.	.	.	.	.	.	.	.	.	.	.	.	.	.
.	.	8ryyyy	.	.	.	.	.	.	.	.	.	.	.	.	.	.	.	.
8DD\yy	.	8d<yy 8A<yy 8F</yy	.	.	.	.	.	.	.	.	.	.	.	.	.	.	.	.
*	*v	*v	*	*	*	*	*	*	*	*	*	*	*	*	*	*	*	*
=86	=86	=86	=86	=86	=86	=86	=86	=86	=86	=86	=86	=86	=86	=86	=86	=86	=86
2DD;<\yy	2d<yy 2A<yy 2F<;/yy	.	1ryy	.	.	1ryy	.	.	1ryy	.	.	1ryy	.	.	1ryy	.	.
2ryy	2ryyyy	.	.	.	.	.	.	.	.	.	.	.	.	.	.	.	.
!!LO:PB:g=original
=87|!	=87|!	=87|!	=87|!	=87|!	=87|!	=87|!	=87|!	=87|!	=87|!	=87|!	=87|!	=87|!	=87|!	=87|!	=87|!	=87|!	=87|!
!LO:TX:t=P:problem=powtórka taktów 1-43	!LO:TX:t=P:problem=powtórka taktów 1-43	!LO:DY:rj	!	!	!	!	!	!	!	!	!	!	!	!	!LO:TX:a:t=3a ZWR.	!	!
2Dyy 2DD/yy	2ddyy 2d/yy	fy	1ryy	.	.	1ryy	.	.	1ryy	.	.	1ryy	.	.	00r	.	.
2F#Xyy 2FF#X^>/yy	4ccyy 4ayy 4d/yy	.	.	.	.	.	.	.	.	.	.	.	.	.	.	.	.
.	4ccyy 4ayy 4d/yy	.	.	.	.	.	.	.	.	.	.	.	.	.	.	.	.
=88	=88	=88	=88	=88	=88	=88	=88	=88	=88	=88	=88	=88	=88	=88	=88	=88	=88
2Gyy 2GG/yy	2bnyy 2gyy 2d/yy	.	1ryy	.	.	1ryy	.	.	1ryy	.	.	1ryy	.	.	.	.	.
2Eyy 2EE/yy	2b-Xyy 2gyy 2c/yy	.	.	.	.	.	.	.	.	.	.	.	.	.	.	.	.
=89	=89	=89	=89	=89	=89	=89	=89	=89	=89	=89	=89	=89	=89	=89	=89	=89	=89
*	*^	*	*	*	*	*	*	*	*	*	*	*	*	*	*	*	*
2Fyy 2FF/yy	2b-yy 2f/yy	2c\yy	.	1ryy	.	.	1ryy	.	.	1ryy	.	.	1ryy	.	.	.	.	.
2Gyy 2GG/yy	4e/yy	2c\yy	.	.	.	.	.	.	.	.	.	.	.	.	.	.	.	.
.	4a/yy	.	mfy	.	.	.	.	.	.	.	.	.	.	.	.	.	.	.
=90	=90	=90	=90	=90	=90	=90	=90	=90	=90	=90	=90	=90	=90	=90	=90	=90	=90	=90
[y2Ayy [y2AA\yy	[y2ayy 2fyy 2d/yy	2ryyyy	.	1ryy	.	.	1ryy	.	.	1ryy	.	.	1ryy	.	.	.	.	.
2A]yy 2AA\]yy	2a]yy 2e/yy	4d\yy	.	.	.	.	.	.	.	.	.	.	.	.	.	.	.	.
.	.	4c#X\yy	.	.	.	.	.	.	.	.	.	.	.	.	.	.	.	.
*	*v	*v	*	*	*	*	*	*	*	*	*	*	*	*	*	*	*	*
=91	=91	=91	=91	=91	=91	=91	=91	=91	=91	=91	=91	=91	=91	=91	=91	=91	=91
*xywh-#5:158,1685,2581,226	*xywh-#5:158,1685,2581,226	*xywh-#5:158,1685,2581,226	*	*xywh-#5:158,1685,2581,226	*	*	*xywh-#5:158,1685,2581,226	*	*	*xywh-#5:158,1685,2581,226	*	*	*xywh-#5:158,1685,2581,226	*	*xywh-#5:158,1685,2581,226	*xywh-#5:158,1685,2581,226	*xywh-#5:158,1685,2581,226
!	!	!	!	!	!	!	!	!	!	!	!	!	!	!	!LO:TX:a:t=adlibitum	!	!LO:DY:a:rj
4AAyy 4AAA/yy	4ayy 4c#Xyy 4Ayy 4G/yy	.	1ryy	.	.	1ryy	.	.	1ryy	.	.	1ryy	.	.	(4.ee\	Vae	f
4ryy	4ryy	.	.	.	.	.	.	.	.	.	.	.	.	.	.	.	.
.	.	.	.	.	.	.	.	.	.	.	.	.	.	.	8cc#X\)	.	.
!	!	!	!	!	!	!	!	!	!	!	!	!	!	!	!LO:TUP:problem=klamra łukowa	!	!
2r;yy	2r;yy	.	.	.	.	.	.	.	.	.	.	.	.	.	12a\L	vic-	.
.	.	.	.	.	.	.	.	.	.	.	.	.	.	.	12cc#\	.	.
.	.	.	.	.	.	.	.	.	.	.	.	.	.	.	12ee\J	.	.
.	.	.	.	.	.	.	.	.	.	.	.	.	.	.	4aa;\	-tis!	.
=92	=92	=92	=92	=92	=92	=92	=92	=92	=92	=92	=92	=92	=92	=92	=92	=92	=92
!	!	!LO:DY:rj	!	!	!	!	!	!	!	!	!	!	!	!	!LO:TX:a:t=a tempo	!	!
(y8D\Lyy	2ddyy 2d/yy	mfy	1ryy	.	.	1ryy	.	.	1ryy	.	.	1ryy	.	.	2dd^\	Nasz	.
8F\yy	.	.	.	.	.	.	.	.	.	.	.	.	.	.	.	.	.
8A\yy	.	.	.	.	.	.	.	.	.	.	.	.	.	.	.	.	.
8F\J)yy	.	.	.	.	.	.	.	.	.	.	.	.	.	.	.	.	.
.	(y32qqd/LLLyy	.	.	.	.	.	.	.	.	.	.	.	.	.	.	.	.
.	32qqg/JJJyy	.	.	.	.	.	.	.	.	.	.	.	.	.	.	.	.
(y8D\Lyy	(y8ccn/L)yy	.	.	.	.	.	.	.	.	.	.	.	.	.	(8ccn\L	sę-	.
8G\yy	8b-/yy	.	.	.	.	.	.	.	.	.	.	.	.	.	8b-\J)	.	.
8A\yy	8a/yy	.	.	.	.	.	.	.	.	.	.	.	.	.	(8a/L	-dzia	.
8B-\J)yy	8g/Jyy	.	.	.	.	.	.	.	.	.	.	.	.	.	8g/J)	.	.
=93	=93	=93	=93	=93	=93	=93	=93	=93	=93	=93	=93	=93	=93	=93	=93	=93	=93
(y8D\Lyy	[y4f/)yy	.	1ryy	.	.	1ryy	.	.	1ryy	.	.	1ryy	.	.	(4.f/	w nie-	.
8F\yy	.	.	.	.	.	.	.	.	.	.	.	.	.	.	.	.	.
8A\yy	8aLyy 8f/]yy	.	.	.	.	.	.	.	.	.	.	.	.	.	.	.	.
8G\Jyy	8cc#XJyy 8e/yy	.	.	.	.	.	.	.	.	.	.	.	.	.	8e/)	.	.
8F\Lyy	4ddyy 4d/yy	.	.	.	.	.	.	.	.	.	.	.	.	.	4d/	-bie	.
8E\yy	.	.	.	.	.	.	.	.	.	.	.	.	.	.	.	.	.
8D\yy	8ryy	.	.	.	.	.	.	.	.	.	.	.	.	.	4r	.	.
8Cn\J)yy	8d/yy	.	.	.	.	.	.	.	.	.	.	.	.	.	.	.	.
=94	=94	=94	=94	=94	=94	=94	=94	=94	=94	=94	=94	=94	=94	=94	=94	=94	=94
*	*^	*	*	*	*	*	*	*	*	*	*	*	*	*	*	*	*
!	!	!	!LO:HP:a	!	!	!	!	!	!	!	!	!	!	!	!	!	!	!
8BB-^\Lyy	4g/yy	4d\yy	<	1ryy	.	.	1ryy	.	.	1ryy	.	.	1ryy	.	.	4g/	Poms-	.
8D\Jyy	.	.	.	.	.	.	.	.	.	.	.	.	.	.	.	.	.	.
8AA^\Lyy	4f#X/yy	2d\yy	.	.	.	.	.	.	.	.	.	.	.	.	.	8d/	-ci	.
8D\Jyy	.	.	.	.	.	.	.	.	.	.	.	.	.	.	.	8d/	krew	.
8GG\Lyy	4g/yy	.	.	.	.	.	.	.	.	.	.	.	.	.	.	4g\	brat-	.
8G\yy	.	.	.	.	.	.	.	.	.	.	.	.	.	.	.	.	.	.
8D\yy	4b-/yy	4d\yy	[	.	.	.	.	.	.	.	.	.	.	.	.	8b-\	-nią	.
8G\Jyy	.	.	.	.	.	.	.	.	.	.	.	.	.	.	.	8b-\	i	.
*	*v	*v	*	*	*	*	*	*	*	*	*	*	*	*	*	*	*	*
=95	=95	=95	=95	=95	=95	=95	=95	=95	=95	=95	=95	=95	=95	=95	=95	=95	=95
*^	*	*	*	*	*	*	*	*	*	*	*	*	*	*	*	*	*
4A/yy	8AA\Lyy	4.ayy 4.c#X/yy	.	1ryy	.	.	1ryy	.	.	1ryy	.	.	1ryy	.	.	2a^>/	tru-	.
.	8C#X\yy	.	.	.	.	.	.	.	.	.	.	.	.	.	.	.	.	.
4ryyyy	8E\yy	.	.	.	.	.	.	.	.	.	.	.	.	.	.	.	.	.
.	8G\Jyy	8e/yy	.	.	.	.	.	.	.	.	.	.	.	.	.	.	.	.
.	.	.	.	.	.	.	.	.	.	.	.	.	.	.	.	(<16qqcc#X/LL	.	.
.	.	.	.	.	.	.	.	.	.	.	.	.	.	.	.	16qqbn/JJ	.	.
2AA/yy	2ryyyy	8a/Lyy	.	.	.	.	.	.	.	.	.	.	.	.	.	4a/)	-dy;	.
.	.	8a/yy	.	.	.	.	.	.	.	.	.	.	.	.	.	.	.	.
.	.	8bn/yy	.	.	.	.	.	.	.	.	.	.	.	.	.	4r	.	.
.	.	8cc#X/Jyy	.	.	.	.	.	.	.	.	.	.	.	.	.	.	.	.
*v	*v	*	*	*	*	*	*	*	*	*	*	*	*	*	*	*	*	*
=96	=96	=96	=96	=96	=96	=96	=96	=96	=96	=96	=96	=96	=96	=96	=96	=96	=96
.	(y32qqd/LLLyy	fy	.	.	.	.	.	.	.	.	.	.	.	.	.	.	.
.	32qqf/JJJyy	.	.	.	.	.	.	.	.	.	.	.	.	.	.	.	.
8DLyy 8DD\yy	2ddyy 2fyy 2d/)yy	.	1ryy	.	.	1ryy	.	.	1ryy	.	.	1ryy	.	.	4dd\	Za	.
8F\yy	.	.	.	.	.	.	.	.	.	.	.	.	.	.	.	.	.
8A\yy	.	.	.	.	.	.	.	.	.	.	.	.	.	.	8dd\	tę	.
8F\Jyy	.	.	.	.	.	.	.	.	.	.	.	.	.	.	8dd\	nie-	.
.	(y<32qqd/LLLyy	<	.	.	.	.	.	.	.	.	.	.	.	.	.	.	.
.	32qqg/JJJyy	.	.	.	.	.	.	.	.	.	.	.	.	.	.	.	.
8D\Lyy	(y8ccn\L)yy	.	.	.	.	.	.	.	.	.	.	.	.	.	(8ccn\L	-wdzię-	.
8G\yy	8b-X\yy	.	.	.	.	.	.	.	.	.	.	.	.	.	8b-X\J)	.	.
8A\yy	8a\yy	.	.	.	.	.	.	.	.	.	.	.	.	.	8a/	-czność,	.
8B-\Jyy	8g\Jyy	[[	.	.	.	.	.	.	.	.	.	.	.	.	8g/	od	.
!!LO:LB:g=original
=97	=97	=97	=97	=97	=97	=97	=97	=97	=97	=97	=97	=97	=97	=97	=97	=97	=97
*xywh-#5:137,1894,2594,185	*xywh-#5:137,1894,2594,185	*	*xywh-#5:137,1894,2594,185	*	*	*xywh-#5:137,1894,2594,185	*	*	*xywh-#5:137,1894,2594,185	*	*	*xywh-#5:137,1894,2594,185	*	*	*xywh-#5:137,1894,2594,185	*xywh-#5:137,1894,2594,185	*
8AL 8D\yy	4.f/)yy	.	1ryy	.	.	1ryy	.	.	1ryy	.	.	1ryy	.	.	(4.f/	cie-	.
8F\yy	.	.	.	.	.	.	.	.	.	.	.	.	.	.	.	.	.
8A\yy	.	.	.	.	.	.	.	.	.	.	.	.	.	.	.	.	.
8c#X\Jyy	8e/yy	.	.	.	.	.	.	.	.	.	.	.	.	.	8e/)	.	.
4dyy 4A\yy	4f/yy	.	.	.	.	.	.	.	.	.	.	.	.	.	4f/	-bie	.
4G#Xyy 4Fyy 4BBn^\yy	8d/Lyy	.	.	.	.	.	.	.	.	.	.	.	.	.	4r	.	.
.	8dd/Jyy	.	.	.	.	.	.	.	.	.	.	.	.	.	.	.	.
=98	=98	=98	=98	=98	=98	=98	=98	=98	=98	=98	=98	=98	=98	=98	=98	=98	=98
*^	*^	*	*	*	*	*	*	*	*	*	*	*	*	*	*	*	*
*	*	*	*^	*	*	*	*	*	*	*	*	*	*	*	*	*	*	*	*
2Ayy 2F\yy	2Cn\yy	4f/yy	2ccn/yy	2cn\yy	<	1ryy	.	.	1ryy	.	.	1ryy	.	.	1ryy	.	.	4f/	Wszys-	.
.	.	(y8e/Lyy	.	.	.	.	.	.	.	.	.	.	.	.	.	.	.	8e/	-tkie	.
.	.	8f/Jyy	.	.	.	.	.	.	.	.	.	.	.	.	.	.	.	8f/	od-	.
8C/Lyy	2C\yy	8a/Lyy	2ryyyy	2ryyyy	[	.	.	.	.	.	.	.	.	.	.	.	.	4a/	-wró-	.
8E/yy	.	8g/yy	.	.	.	.	.	.	.	.	.	.	.	.	.	.	.	.	.	.
8G/yy	.	8e/yy	.	.	.	.	.	.	.	.	.	.	.	.	.	.	.	8g/	-cą	.
8B-X/Jyy	.	8g/J)yy	.	.	.	.	.	.	.	.	.	.	.	.	.	.	.	8g/	się	.
.	.	.	.	.	.	.	.	.	.	.	.	.	.	.	.	.	.	.	.	.
*	*	*v	*v	*v	*	*	*	*	*	*	*	*	*	*	*	*	*	*	*	*
=99	=99	=99	=99	=99	=99	=99	=99	=99	=99	=99	=99	=99	=99	=99	=99	=99	=99	=99
8C/Lyy	2C\yy	2g/yy	.	1ryy	.	.	1ryy	.	.	1ryy	.	.	1ryy	.	.	2cc^\	lu-	.
8E/yy	.	.	.	.	.	.	.	.	.	.	.	.	.	.	.	.	.	.
8B-/yy	.	.	.	.	.	.	.	.	.	.	.	.	.	.	.	.	.	.
8E/Jyy	.	.	.	.	.	.	.	.	.	.	.	.	.	.	.	.	.	.
4A\yy	4F\yy	4f/yy	.	.	.	.	.	.	.	.	.	.	.	.	.	4f/	-dy!	.
4FF/yy	4ryyyy	8ryy	.	.	.	.	.	.	.	.	.	.	.	.	.	8r	.	.
.	.	8a/yy	.	.	.	.	.	.	.	.	.	.	.	.	.	8a/	Gdy	.
*v	*v	*	*	*	*	*	*	*	*	*	*	*	*	*	*	*	*	*
=100	=100	=100	=100	=100	=100	=100	=100	=100	=100	=100	=100	=100	=100	=100	=100	=100	=100
!	!	!LO:DY:rj	!	!	!	!	!	!	!	!	!	!	!	!	!	!	!
8AA\Lyy	2.cc#Xyy 2.ayy 2.e/yy	sfy	1ryy	.	.	1ryy	.	.	1ryy	.	.	1ryy	.	.	2cc#X^\	ru-	.
8C#X\yy	.	.	.	.	.	.	.	.	.	.	.	.	.	.	.	.	.
8E\yy	.	.	.	.	.	.	.	.	.	.	.	.	.	.	.	.	.
8A\Jyy	.	.	.	.	.	.	.	.	.	.	.	.	.	.	.	.	.
4AA/yy	.	.	.	.	.	.	.	.	.	.	.	.	.	.	8a/	-niesz	.
.	.	.	.	.	.	.	.	.	.	.	.	.	.	.	8a/	z Ce-	.
8.ALyy 8.AA\yy	8.cc#Lyy 8.ayy 8.e/yy	.	.	.	.	.	.	.	.	.	.	.	.	.	8a/	-za-	.
.	.	.	.	.	.	.	.	.	.	.	.	.	.	.	8a/	-rów	.
16GJkyy 16GG\yy	16cc#Jkyy 16ayy 16e/yy	.	.	.	.	.	.	.	.	.	.	.	.	.	.	.	.
=101	=101	=101	=101	=101	=101	=101	=101	=101	=101	=101	=101	=101	=101	=101	=101	=101	=101
4F\yy	2.ddyy 2.ayy 2.f^\yy	.	1ryy	.	.	1ryy	.	.	1ryy	.	.	1ryy	.	.	2dd^\	tro-	.
8A\Lyy	.	.	.	.	.	.	.	.	.	.	.	.	.	.	.	.	.
8F\Jyy	.	.	.	.	.	.	.	.	.	.	.	.	.	.	.	.	.
4D\yy	.	.	.	.	.	.	.	.	.	.	.	.	.	.	4a\	-nem	.
!	!	!LO:DY:rj	!	!	!	!	!	!	!	!	!	!	!	!	!	!	!
8.dLyy 8.D\yy	8.ddLyy 8.ayy 8.f/yy	sfy	.	.	.	.	.	.	.	.	.	.	.	.	4r	.	.
16dJkyy 16D\yy	16ddJkyy 16ayy 16f/yy	.	.	.	.	.	.	.	.	.	.	.	.	.	.	.	.
=102	=102	=102	=102	=102	=102	=102	=102	=102	=102	=102	=102	=102	=102	=102	=102	=102	=102
*^	*	*	*	*	*	*	*	*	*	*	*	*	*	*	*	*	*
4A/yy	2Ayy 2AA\yy	2.eeyy 2.cc#Xyy 2.ayy 2.e/yy	sfy	1ryy	.	.	1ryy	.	.	1ryy	.	.	1ryy	.	.	4ee^\	Sa-	.
8E/Lyy	.	.	.	.	.	.	.	.	.	.	.	.	.	.	.	8a/	-ma	.
8C#X/Jyy	.	.	.	.	.	.	.	.	.	.	.	.	.	.	.	8a/	téż	.
4AA/yy	2ryyyy	.	.	.	.	.	.	.	.	.	.	.	.	.	.	4a/	bę-	.
8.ALyy 8.AA\yy	.	8.eeLyy 8.cc#yy 8.ayy 8.e\yy	<	.	.	.	.	.	.	.	.	.	.	.	.	8a/	-dziesz	.
.	.	.	.	.	.	.	.	.	.	.	.	.	.	.	.	8a/	w téj	.
16AJkyy 16AA\yy	.	16eeJkyy 16cc#yy 16ayy 16e\yy	[[	.	.	.	.	.	.	.	.	.	.	.	.	.	.	.
*v	*v	*	*	*	*	*	*	*	*	*	*	*	*	*	*	*	*	*
=103	=103	=103	=103	=103	=103	=103	=103	=103	=103	=103	=103	=103	=103	=103	=103	=103	=103
8DD/Lyy	4.ffyy 4.ayy 4.f\yy	>	1ryy	.	.	1ryy	.	.	1ryy	.	.	1ryy	.	.	(4.ff^\	to-	.
8AA/yy	.	.	.	.	.	.	.	.	.	.	.	.	.	.	.	.	.
8D/yy	.	.	.	.	.	.	.	.	.	.	.	.	.	.	.	.	.
8AA/Jyy	8eeyy 8cc#Xyy 8ayy 8g\yy	.	.	.	.	.	.	.	.	.	.	.	.	.	8ee\)	.	.
4DD/yy	4ddyy 4ayy 4f\yy	]	.	.	.	.	.	.	.	.	.	.	.	.	4dd\	-ni;	.
4ryy	8.a\Lyy	.	.	.	.	.	.	.	.	.	.	.	.	.	4r	.	.
.	16a\Jkyy	.	.	.	.	.	.	.	.	.	.	.	.	.	.	.	.
!!LO:LB:g=original
=104	=104	=104	=104	=104	=104	=104	=104	=104	=104	=104	=104	=104	=104	=104	=104	=104	=104
*xywh-#5:154,2062,2584,212	*xywh-#5:154,2062,2584,212	*	*xywh-#5:154,2062,2584,212	*xywh-#5:154,2062,2584,212	*	*	*xywh-#5:154,2062,2584,212	*	*	*xywh-#5:154,2062,2584,212	*	*	*xywh-#5:154,2062,2584,212	*	*	*xywh-#5:154,2062,2584,212	*xywh-#5:154,2062,2584,212
!	!	!LO:DY:rj	!	!	!	!	!	!	!	!	!	!	!	!	!	!	!LO:DY:a:rj
2Dyy 2DD/yy	4.ffyy 4.ayy 4.f/yy	fy	1ryy	.	.	1ryy	.	.	1ryy	.	.	1ryy	.	.	2ff\	Prze-	f
*	*ped	*	*	*	*	*	*	*	*	*	*	*	*	*	*	*	*
.	.	.	.	.	.	.	.	.	.	.	.	.	.	.	.	.	.
.	8ffyy 8ayy 8f/yy	.	.	.	.	.	.	.	.	.	.	.	.	.	.	.	.
4Ayy 4AA\yy	8.eeLyy 8.ayy 8.e/yy	.	.	.	.	.	.	.	.	.	.	.	.	.	4ee\	-pad-	.
*	*Xped	*	*	*	*	*	*	*	*	*	*	*	*	*	*	*	*
.	.	.	.	.	.	.	.	.	.	.	.	.	.	.	.	.	.
*	*ped	*	*	*	*	*	*	*	*	*	*	*	*	*	*	*	*
.	16eeKyy 16ayy 16e/yy	.	.	.	.	.	.	.	.	.	.	.	.	.	.	.	.
4AAyy 4AAA/yy	8.eeyy 8.ayy 8.e/yy	.	.	.	.	.	.	.	.	.	.	.	.	.	4ee\	-niesz,	.
.	16eeJkyy 16ayy 16e/yy	.	.	.	.	.	.	.	.	.	.	.	.	.	.	.	.
*	*Xped	*	*	*	*	*	*	*	*	*	*	*	*	*	*	*	*
.	.	.	.	.	.	.	.	.	.	.	.	.	.	.	.	.	.
=105	=105	=105	=105	=105	=105	=105	=105	=105	=105	=105	=105	=105	=105	=105	=105	=105	=105
*	*ped	*	*	*	*	*	*	*	*	*	*	*	*	*	*	*	*
4BB-yy 4BBB-/yy	2ddyy 2fyy 2d/yy	.	1ryy	.	.	1ryy	.	.	1ryy	.	.	1ryy	.	.	2dd\	i	.
4B-yy 4BB-^\yy	.	.	.	.	.	.	.	.	.	.	.	.	.	.	.	.	.
*	*Xped	*	*	*	*	*	*	*	*	*	*	*	*	*	*	*	*
.	.	.	.	.	.	.	.	.	.	.	.	.	.	.	.	.	.
4Ayy 4AA^\yy	8.ccnLyy 8.fyy 8.c/yy	.	.	.	.	.	.	.	.	.	.	.	.	.	4ccn\	nad	.
*	*ped	*	*	*	*	*	*	*	*	*	*	*	*	*	*	*	*
.	16ccKyy 16fyy 16c/yy	.	.	.	.	.	.	.	.	.	.	.	.	.	.	.	.
4Fyy 4FF^\yy	8.ccyy 8.fyy 8.c/yy	.	.	.	.	.	.	.	.	.	.	.	.	.	4cc\	twym	.
.	16ccJkyy 16fyy 16c/yy	.	.	.	.	.	.	.	.	.	.	.	.	.	.	.	.
*	*Xped	*	*	*	*	*	*	*	*	*	*	*	*	*	*	*	*
.	.	.	.	.	.	.	.	.	.	.	.	.	.	.	.	.	.
=106	=106	=106	=106	=106	=106	=106	=106	=106	=106	=106	=106	=106	=106	=106	=106	=106	=106
*	*ped	*	*	*	*	*	*	*	*	*	*	*	*	*	*	*	*
2Eyy 2EE/yy	2b-yy 2gyy 2c/yy	.	1ryy	.	.	1ryy	.	.	1ryy	.	.	1ryy	.	.	2b-\	zgo-	.
*	*Xped	*	*	*	*	*	*	*	*	*	*	*	*	*	*	*	*
.	.	.	.	.	.	.	.	.	.	.	.	.	.	.	.	.	.
4Fyy 4FF/yy	8.aLyy 8.fyy 8.c/yy	.	.	.	.	.	.	.	.	.	.	.	.	.	4a/	-nem	.
.	16aKyy 16fyy 16c/yy	.	.	.	.	.	.	.	.	.	.	.	.	.	.	.	.
4Ayy 4AA/yy	8.ccyy 8.fyy 8.c/yy	.	.	.	.	.	.	.	.	.	.	.	.	.	4a/	twym	.
.	16aJkyy 16fyy 16c/yy	.	.	.	.	.	.	.	.	.	.	.	.	.	.	.	.
=107	=107	=107	=107	=107	=107	=107	=107	=107	=107	=107	=107	=107	=107	=107	=107	=107	=107
*	*ped	*	*	*	*	*	*	*	*	*	*	*	*	*	*	*	*
2C/yy	8gLyy 8eyy 8c/yy	.	1ryy	.	.	1ryy	.	.	1ryy	.	.	1ryy	.	.	(2g\	zgo-	.
.	16ccLyy 16c/yy	ffy	.	.	.	.	.	.	.	.	.	.	.	.	.	.	.
.	16ccJJyy 16c/yy	.	.	.	.	.	.	.	.	.	.	.	.	.	.	.	.
.	8ccLyy 8c/yy	.	.	.	.	.	.	.	.	.	.	.	.	.	.	.	.
.	8ccJyy 8c/yy	.	.	.	.	.	.	.	.	.	.	.	.	.	.	.	.
4Cyy 4CC/yy	8ccLyy 8c/yy	.	.	.	.	.	.	.	.	.	.	.	.	.	4cc\)	-nem	.
.	8ccyy 8c/yy	.	.	.	.	.	.	.	.	.	.	.	.	.	.	.	.
4Cyy 4CC/yy	8ccyy 8c/yy	.	.	.	.	.	.	.	.	.	.	.	.	.	4r	.	.
.	8b-Jyy 8B-^/yy	.	.	.	.	.	.	.	.	.	.	.	.	.	.	.	.
*	*Xped	*	*	*	*	*	*	*	*	*	*	*	*	*	*	*	*
.	.	.	.	.	.	.	.	.	.	.	.	.	.	.	.	.	.
=108	=108	=108	=108	=108	=108	=108	=108	=108	=108	=108	=108	=108	=108	=108	=108	=108	=108
!	!	!	!	!	!	!	!	!	!	!	!	!	!	!	!	!	!LO:DY:a
2C#Xyy 2CC#X/yy	16ryy	fpy	1ryy	.	.	1ryy	.	.	1ryy	.	.	1ryy	.	.	8r	.	mf
.	(y16A/LLyy	.	.	.	.	.	.	.	.	.	.	.	.	.	.	.	.
*	*ped	*	*	*	*	*	*	*	*	*	*	*	*	*	*	*	*
.	16e/yy	.	.	.	.	.	.	.	.	.	.	.	.	.	8a/	Pols-	.
.	16g/JJyy	.	.	.	.	.	.	.	.	.	.	.	.	.	.	.	.
.	16a/LLyy	.	.	.	.	.	.	.	.	.	.	.	.	.	8a/	-ka	.
.	16g/yy	.	.	.	.	.	.	.	.	.	.	.	.	.	.	.	.
.	16e/yy	.	.	.	.	.	.	.	.	.	.	.	.	.	8a/	łzę	.
.	16A/JJ)yy	.	.	.	.	.	.	.	.	.	.	.	.	.	.	.	.
2Ayy 2AA\yy	16ryy	.	.	.	.	.	.	.	.	.	.	.	.	.	4cc#X\	brat-	.
.	(y16e/LLyy	.	.	.	.	.	.	.	.	.	.	.	.	.	.	.	.
.	16g/yy	.	.	.	.	.	.	.	.	.	.	.	.	.	.	.	.
.	16a/JJyy	.	.	.	.	.	.	.	.	.	.	.	.	.	.	.	.
.	16cc#X/LLyy	.	.	.	.	.	.	.	.	.	.	.	.	.	8a/	-nią	.
.	16a/yy	.	.	.	.	.	.	.	.	.	.	.	.	.	.	.	.
.	16g/yy	.	.	.	.	.	.	.	.	.	.	.	.	.	8a/	u-	.
*	*Xped	*	*	*	*	*	*	*	*	*	*	*	*	*	*	*	*
.	16e/JJ)yy	.	.	.	.	.	.	.	.	.	.	.	.	.	.	.	.
=109	=109	=109	=109	=109	=109	=109	=109	=109	=109	=109	=109	=109	=109	=109	=109	=109	=109
2DD/yy	16ryy	.	1ryy	.	.	1ryy	.	.	1ryy	.	.	1ryy	.	.	2dd\	-ro-	.
.	(y16d/LLyy	.	.	.	.	.	.	.	.	.	.	.	.	.	.	.	.
.	16f/yy	.	.	.	.	.	.	.	.	.	.	.	.	.	.	.	.
.	16a/JJyy	.	.	.	.	.	.	.	.	.	.	.	.	.	.	.	.
.	16dd/LLyy	.	.	.	.	.	.	.	.	.	.	.	.	.	.	.	.
.	16a/yy	.	.	.	.	.	.	.	.	.	.	.	.	.	.	.	.
.	16f/yy	.	.	.	.	.	.	.	.	.	.	.	.	.	.	.	.
.	16a/JJyy	.	.	.	.	.	.	.	.	.	.	.	.	.	.	.	.
4D\yy	4d/)yy	.	.	.	.	.	.	.	.	.	.	.	.	.	4a\	-ni!	.
4F\yy	(y16dd\LLyy	.	.	.	.	.	.	.	.	.	.	.	.	.	4r	.	.
.	16cc#X\yy	.	.	.	.	.	.	.	.	.	.	.	.	.	.	.	.
.	16een\yy	.	.	.	.	.	.	.	.	.	.	.	.	.	.	.	.
.	16dd\JJ)yy	.	.	.	.	.	.	.	.	.	.	.	.	.	.	.	.
=110	=110	=110	=110	=110	=110	=110	=110	=110	=110	=110	=110	=110	=110	=110	=110	=110	=110
2A\yy	16ryy	.	1ryy	.	.	1ryy	.	.	1ryy	.	.	1ryy	.	.	8r	.	.
.	(y16e/LLyy	.	.	.	.	.	.	.	.	.	.	.	.	.	.	.	.
.	16g/yy	.	.	.	.	.	.	.	.	.	.	.	.	.	8a/	Pols-	.
.	16a/JJyy	.	.	.	.	.	.	.	.	.	.	.	.	.	.	.	.
.	16cc#X/LLyy	.	.	.	.	.	.	.	.	.	.	.	.	.	8a/	-ka	.
.	16a/yy	.	.	.	.	.	.	.	.	.	.	.	.	.	.	.	.
.	16g/yy	.	.	.	.	.	.	.	.	.	.	.	.	.	8a/	łzę	.
.	16e/JJ)yy	.	.	.	.	.	.	.	.	.	.	.	.	.	.	.	.
2AA/yy	16ryy	.	.	.	.	.	.	.	.	.	.	.	.	.	4ee^\	brat-	.
.	(y16e/LLyy	.	.	.	.	.	.	.	.	.	.	.	.	.	.	.	.
.	16g/yy	.	.	.	.	.	.	.	.	.	.	.	.	.	.	.	.
.	16a/JJyy	.	.	.	.	.	.	.	.	.	.	.	.	.	.	.	.
.	16cc#/LLyy	.	.	.	.	.	.	.	.	.	.	.	.	.	8a/	-nią	.
.	16a/yy	.	.	.	.	.	.	.	.	.	.	.	.	.	.	.	.
.	16g/yy	.	.	.	.	.	.	.	.	.	.	.	.	.	8a/	u-	.
.	16e/JJ)yy	.	.	.	.	.	.	.	.	.	.	.	.	.	.	.	.
=111	=111	=111	=111	=111	=111	=111	=111	=111	=111	=111	=111	=111	=111	=111	=111	=111	=111
2D/yy	16ryy	.	1ryy	.	.	1ryy	.	.	1ryy	.	.	1ryy	.	.	2ff^\	-ro-	.
.	(y16d/LLyy	.	.	.	.	.	.	.	.	.	.	.	.	.	.	.	.
.	16f/yy	.	.	.	.	.	.	.	.	.	.	.	.	.	.	.	.
.	16a/JJyy	.	.	.	.	.	.	.	.	.	.	.	.	.	.	.	.
.	16dd\LLyy	.	.	.	.	.	.	.	.	.	.	.	.	.	.	.	.
.	16f\yy	.	.	.	.	.	.	.	.	.	.	.	.	.	.	.	.
.	16a\yy	.	.	.	.	.	.	.	.	.	.	.	.	.	.	.	.
.	16dd\JJyy	.	.	.	.	.	.	.	.	.	.	.	.	.	.	.	.
4DD/yy	16ff\LLyy	.	.	.	.	.	.	.	.	.	.	.	.	.	4dd\	-ni!	.
.	16dd\yy	.	.	.	.	.	.	.	.	.	.	.	.	.	.	.	.
.	16a\yy	.	.	.	.	.	.	.	.	.	.	.	.	.	.	.	.
.	16f\JJ)yy	.	.	.	.	.	.	.	.	.	.	.	.	.	.	.	.
4ryy	4d^>/yy	.	.	.	.	.	.	.	.	.	.	.	.	.	4r	.	.
!!LO:LB:g=original
=112|!	=112|!	=112|!	=112|!	=112|!	=112|!	=112|!	=112|!	=112|!	=112|!	=112|!	=112|!	=112|!	=112|!	=112|!	=112|!	=112|!	=112|!
*^	*	*	*	*	*	*	*	*	*	*	*	*	*	*	*	*	*
*xywh-#5:247,2241,2526,736	*xywh-#5:247,2241,2526,736	*xywh-#5:247,2241,2526,736	*xywh-#5:247,2241,2526,736	*xywh-#5:247,2241,2526,736	*xywh-#5:247,2241,2526,736	*xywh-#5:247,2241,2526,736	*xywh-#5:247,2241,2526,736	*xywh-#5:247,2241,2526,736	*xywh-#5:247,2241,2526,736	*xywh-#5:247,2241,2526,736	*xywh-#5:247,2241,2526,736	*	*xywh-#5:247,2241,2526,736	*xywh-#5:247,2241,2526,736	*xywh-#5:247,2241,2526,736	*xywh-#5:247,2241,2526,736	*	*
8D/Lyy	1Dyy	(y4.f#X^/yy	.	4.r	.	.	4.r	.	.	4.r	.	.	4.r	.	.	1ryy	.	.
!	!	!LO:TX:b:t=cres_cen_do:problem=dynamics with extention lines	!LO:HP:t=cres_cen_do_	!	!	!	!	!	!	!	!	!	!	!	!	!	!	!
8A/yy	.	.	<	.	.	.	.	.	.	.	.	.	.	.	.	.	.	.
8F#X/yy	.	.	.	.	.	.	.	.	.	.	.	.	.	.	.	.	.	.
!	!	!	!	!	!	!LO:DY:a:rj	!	!	!LO:DY:a:rj	!	!	!	!	!	!LO:DY:a:rj	!	!	!
8A/Jyy	.	8dd\)yy	.	8D\	Gdy	p	8F#X/	Gdy	p	8A\	Gdy	.	8dd\	Gdy	f	.	.	.
!	!	!	!	!	!	!	!	!	!	!	!	!	!LO:TX:a:t=cre_cen_do:problem=dynamics with extention lines	!	!LO:HP:a:t=cres_cen_do	!	!	!
8d/Lyy	.	4dd\yy	.	[2D\	ru-	.	(2F#/	ru-	.	(2A\	ru-	.	(2dd\	ru-	<	.	.	.
8A/yy	.	.	.	.	.	.	.	.	.	.	.	.	.	.	.	.	.	.
8F#/yy	.	(y16dd\LLyy	.	.	.	.	.	.	.	.	.	.	.	.	.	.	.	.
.	.	16cc#X\yy	.	.	.	.	.	.	.	.	.	.	.	.	.	.	.	.
8A/Jyy	.	16ee-X\yy	.	.	.	.	.	.	.	.	.	.	.	.	.	.	.	.
.	.	16dd\JJ)yy	.	.	.	.	.	.	.	.	.	.	.	.	.	.	.	.
=113	=113	=113	=113	=113	=113	=113	=113	=113	=113	=113	=113	=113	=113	=113	=113	=113	=113	=113
8D/Lyy	1Dyy	(y4.g/yy	.	4.D\]	-niesz	.	4.G/)	-niesz	.	4.B-\)	-niesz	.	4.g\)	-niesz	.	1ryy	.	.
8B-/yy	.	.	.	.	.	.	.	.	.	.	.	.	.	.	.	.	.	.
8G/yy	.	.	.	.	.	.	.	.	.	.	.	.	.	.	.	.	.	.
8B-/Jyy	.	8dd\)yy	.	8D\	gdy	.	8G/	gdy	.	8B-\	gdy	.	8dd\	gdy	.	.	.	.
8d/Lyy	.	4dd\yy	.	2D\	ru-	.	2G/	ru-	.	2B-\	ru-	.	(2dd\	ru-	.	.	.	.
8B-/yy	.	.	.	.	.	.	.	.	.	.	.	.	.	.	.	.	.	.
8G/yy	.	(y16dd\LLyy	.	.	.	.	.	.	.	.	.	.	.	.	.	.	.	.
.	.	16cc#X\yy	.	.	.	.	.	.	.	.	.	.	.	.	.	.	.	.
8B-/Jyy	.	16ee-X\yy	.	.	.	.	.	.	.	.	.	.	.	.	.	.	.	.
.	.	16dd\JJ)yy	.	.	.	.	.	.	.	.	.	.	.	.	.	.	.	.
=114	=114	=114	=114	=114	=114	=114	=114	=114	=114	=114	=114	=114	=114	=114	=114	=114	=114	=114
!	!	!	!	!LO:N:vis=2.	!	!	!	!	!	!	!	!	!	!	!	!	!	!
8D/Lyy	1Dyy	4.g#X/yy	.	4.D\	-niesz	.	4.G#X 4.E/	-niesz	.	4.B\	-niesz	.	4.g#X\)	-niesz	.	1ryy	.	.
8Bn/yy	.	.	[	.	.	.	.	.	.	.	.	.	.	.	.	.	.	.
8G#X/yy	.	.	.	.	.	.	.	.	.	.	.	.	.	.	.	.	.	.
8B/Jyy	.	8een\yy	.	8D\	z Ce-	.	8G# 8E/	z Ce-	.	8B\	z Ce-	.	8ee\	z Ce-	.	.	.	.
8d/Lyy	.	4ee\yy	.	4D\	-za-	.	4G# 4E/	-za-	.	4B\	-za-	.	4ee\	-za-	.	.	.	.
8B/yy	.	.	.	.	.	.	.	.	.	.	.	.	.	.	.	.	.	.
8G#/yy	.	(y16ee\LLyy	.	4D\	-rów	.	4G# 4E/	-rów	.	4B\	-rów	.	4ee\	-rów	[	.	.	.
.	.	16dd#X\yy	.	.	.	.	.	.	.	.	.	.	.	.	.	.	.	.
8B/Jyy	.	16ff\yy	.	.	.	.	.	.	.	.	.	.	.	.	.	.	.	.
.	.	16ee\JJ)yy	.	.	.	.	.	.	.	.	.	.	.	.	.	.	.	.
=115	=115	=115	=115	=115	=115	=115	=115	=115	=115	=115	=115	=115	=115	=115	=115	=115	=115	=115
!	!	!	!	!	!	!	!	!	!	!	!	!	!LO:TX:a:t=Rall.	!	!	!	!	!
8D/Lyy	2.D\yy	4a\yy	fy	2AA/	tro-	.	2A 2E/	tro-	.	(4.c#X\	tro-	.	(4.a\	tro-	.	1ryy	.	.
8E/yy	.	.	.	.	.	.	.	.	.	.	.	.	.	.	.	.	.	.
!	!	!LO:TX:a:t=rall.	!	!	!	!	!	!	!	!	!	!	!	!	!	!	!	!
8G/yy	.	8cc#X\Lyy	.	.	.	.	.	.	.	.	.	.	.	.	.	.	.	.
8A/Jyy	.	8ee\Jyy	.	.	.	.	.	.	.	8A\)	.	.	8ee\)	.	.	.	.	.
8c#X/Lyy	.	8aa\Lyy	.	2AA;/	-nem	.	2A;/	-nem	.	2c#;\	-nem	.	2aa;<\	-nem	.	.	.	.
8A/yy	.	8ee\yy	.	.	.	.	.	.	.	.	.	.	.	.	.	.	.	.
8G/yy	4AA;\yy	8cc#\yy	.	.	.	.	.	.	.	.	.	.	.	.	.	.	.	.
8E/Jyy	.	8a;\Jyy	.	.	.	.	.	.	.	.	.	.	.	.	.	.	.	.
=116	=116	=116	=116	=116	=116	=116	=116	=116	=116	=116	=116	=116	=116	=116	=116	=116	=116	=116
.	.	(y16qqd/LLyy	.	.	.	.	.	.	.	.	.	.	.	.	.	.	.	.
.	.	16qqf/JJyy	fy	.	.	.	.	.	.	.	.	.	.	.	.	.	.	.
!	!	!	!	!	!	!LO:DY:a:rj	!	!	!LO:DY:a:rj	!	!	!LO:DY:a:rj	!	!	!LO:DY:a:rj	!	!	!
8F/Lyy	2D\yy	2dd\)yy	.	8r	.	f	8r	.	f	8r	.	f	8r	.	f	1ryy	.	.
8A/yy	.	.	.	8D\	Sa-	.	8F/	Sa-	.	8d\	Sa-	.	8dd\	Sa-	.	.	.	.
8d/yy	.	.	.	8D\	-ma	.	8F/	-ma	.	8d\	-ma	.	8dd\	-ma	.	.	.	.
8A/Jyy	.	.	.	8D\	tez	.	8F/	też	.	8d\	też	.	8dd\	też	.	.	.	.
8G/Lyy	2D\yy	(y8ccn/Lyy	.	4D\	bę-	.	8F#X/L	bę-	.	8cn\L	bę-	.	8ccn\L	bę-	.	.	.	.
8B-/yy	.	8b-/yy	.	.	.	.	8G/J	.	.	8B-\J	.	.	8b-\J	.	.	.	.	.
8d/yy	.	8a/yy	.	8D\	-dziesz	.	8A/	-dziesz	.	8A\	-dziesz	.	8a/	-dziesz	.	.	.	.
8B-/Jyy	.	8g/J)yy	.	8D\	w tej	.	8F#/	w tej	.	8G\	w tej	.	8g/	w tej	.	.	.	.
*v	*v	*	*	*	*	*	*	*	*	*	*	*	*	*	*	*	*	*
=117	=117	=117	=117	=117	=117	=117	=117	=117	=117	=117	=117	=117	=117	=117	=117	=117	=117
8D\Lyy	4.f/yy	.	(4.D/	to-	.	(4.A/	to-	.	(4F/	to-	.	(4.f/	to-	.	1ryy	.	.
8F\yy	.	.	.	.	.	.	.	.	.	.	.	.	.	.	.	.	.
8A\yy	.	.	.	.	.	.	.	.	8f\L)	.	.	.	.	.	.	.	.
8c#X\Jyy	8e/yy	.	8AA/)	.	.	8G/)	.	.	8e\J	.	.	8e/)	.	.	.	.	.
4d\yy	8d/Lyy	.	4D\	-ni;	.	4F/	-ni;	.	4d\	-ni,	.	4d/	-ni;	.	.	.	.
.	8f/yy	.	.	.	.	.	.	.	.	.	.	.	.	.	.	.	.
4D\yy	8b-/yy	.	8r	.	.	8r	.	.	8r	.	.	8r	.	.	.	.	.
.	8a/Jyy	.	8A\	Prze-	.	8A/	Prze-	.	8A/	Prze-	.	8a/	Prze-	.	.	.	.
!!LO:LB:g=original
=118	=118	=118	=118	=118	=118	=118	=118	=118	=118	=118	=118	=118	=118	=118	=118	=118	=118
*xywh-#5:154,2926,2577,740	*xywh-#5:154,2926,2577,740	*	*xywh-#5:154,2926,2577,740	*xywh-#5:154,2926,2577,740	*xywh-#5:154,2926,2577,740	*xywh-#5:154,2926,2577,740	*xywh-#5:154,2926,2577,740	*xywh-#5:154,2926,2577,740	*xywh-#5:154,2926,2577,740	*xywh-#5:154,2926,2577,740	*xywh-#5:154,2926,2577,740	*xywh-#5:154,2926,2577,740	*xywh-#5:154,2926,2577,740	*xywh-#5:154,2926,2577,740	*xywh-#5:154,2926,2577,740	*	*
!	!	!	!	!	!LO:DY:a:rj	!	!	!LO:DY:a:rj	!	!	!LO:DY:a:rj	!	!	!LO:DY:a:rj	!	!	!
2A\yy	8ryy	.	(4A\	-pad-	p	4.A/	-pad-	p	4.A\	-pad-	p	4.a\	-pad-	p	1ryy	.	.
.	(y8e/Lyy	.	.	.	.	.	.	.	.	.	.	.	.	.	.	.	.
.	8cc#X 8a/yy	.	8E\)	.	.	.	.	.	.	.	.	.	.	.	.	.	.
.	8e/Jyy	.	8C#X/	-niesz	.	8E/	-niesz	.	8A\	-niesz	.	8a\	-niesz	.	.	.	.
4AA/yy	8ee/Lyy	.	4AA/	i	.	4E/	i	.	4A\	i	.	4cc#X\	i	.	.	.	.
.	8cc#/yy	.	.	.	.	.	.	.	.	.	.	.	.	.	.	.	.
4ryy	8b-/yy	.	8AA/	nad	.	8E/	nad	.	8A\	nad	.	8a\	nad	.	.	.	.
.	8a/J)yy	.	8AA/	twym	.	8E/	twym	.	8G\	twym	.	8a\	twym	.	.	.	.
=119	=119	=119	=119	=119	=119	=119	=119	=119	=119	=119	=119	=119	=119	=119	=119	=119	=119
2D/yy	8ryy	.	2D\	zgo-	.	2D/	zgo-	.	2F/	zgo-	.	2dd^\	zgo-	.	1ryy	.	.
.	8f\Lyy	.	.	.	.	.	.	.	.	.	.	.	.	.	.	.	.
.	8a\yy	.	.	.	.	.	.	.	.	.	.	.	.	.	.	.	.
.	8dd\Jyy	.	.	.	.	.	.	.	.	.	.	.	.	.	.	.	.
4Ayy 4AA\yy	8cc#X\Lyy	.	4D\	-nem	.	4D/	-nem	.	4F/	-nem	.	4a\	-nem	.	.	.	.
.	8a\yy	.	.	.	.	.	.	.	.	.	.	.	.	.	.	.	.
4ryy	8dd\yy	.	4r	.	.	4r	.	.	4r	.	.	4r	.	.	.	.	.
.	8ee\Jyy	.	.	.	.	.	.	.	.	.	.	.	.	f	.	.	.
=120	=120	=120	=120	=120	=120	=120	=120	=120	=120	=120	=120	=120	=120	=120	=120	=120	=120
*^	*	*	*	*	*	*	*	*	*	*	*	*	*	*	*	*	*
.	.	(y16qqf/LLyy	.	.	.	.	.	.	.	.	.	.	.	.	.	.	.	.
.	.	16qqa/JJyy	fy	.	.	.	.	.	.	.	.	.	.	.	.	.	.	.
!	!	!	!	!	!	!LO:DY:a:rj	!	!	!LO:DY:a:rj	!	!	!LO:DY:a:rj	!	!	!	!	!	!
8D/Lyy	2D\yy	4ffyy 4ccyy 4a\)yy	.	4.D\	Pols-	f	4.d\	Pols-	f	4.A/	Pols-	f	4.ff^\	Pols-	.	1ryy	.	.
8F/yy	.	.	.	.	.	.	.	.	.	.	.	.	.	.	.	.	.	.
8A/yy	.	(y4ee\yy	.	.	.	.	.	.	.	.	.	.	.	.	.	.	.	.
8c#X/Jyy	.	.	.	8D\	-ka	.	8G/	-ka	.	8B-/	-ka	.	8ee\	-ka	.	.	.	.
2ryyyy	8d\Lyy	8dd\Lyy	.	8D\	łzę	.	8F/	łzę	.	8A/	łzę	.	8dd\	łzę	.	.	.	.
.	8F#X^\yy	8ccn\yy	.	8F#X\	brat-	.	8F#X/	brat-	.	8A/	brat-	.	8ccn\	brat-	.	.	.	.
.	8G\yy	8b-\yy	.	8G\	-nią	.	8G/	-nią	.	8B-/	-nią	.	8b-\	-nią	.	.	.	.
.	8D^\Jyy	8a\J)yy	.	8D\	u-	.	8F#/	u-	.	8A/	u-	.	8a\	u-	.	.	.	.
*v	*v	*	*	*	*	*	*	*	*	*	*	*	*	*	*	*	*	*
=121	=121	=121	=121	=121	=121	=121	=121	=121	=121	=121	=121	=121	=121	=121	=121	=121	=121
8GG/Lyy	(y4.cc^\yy	.	2GG/	-ro-	.	2G/	-ro-	.	2G/	-ro-	.	(4.cc\	-ro-	.	1ryy	.	.
8BB-/yy	.	.	.	.	.	.	.	.	.	.	.	.	.	.	.	.	.
8D/yy	.	.	.	.	.	.	.	.	.	.	.	.	.	.	.	.	.
8G/Jyy	8b-\)yy	.	.	.	.	.	.	.	.	.	.	8b-\)	.	.	.	.	.
4B-\yy	4g\yy	.	4GG/	-ni!	.	4G/	-ni!	.	4G/	-ni!	.	4g\	-ni!	.	.	.	.
4B-yy 4BB-\yy	4ddyy 4g#Xyy 4f/yy	sfy	4r	.	.	4r	.	.	4r	.	.	4r	.	.	.	.	.
=122	=122	=122	=122	=122	=122	=122	=122	=122	=122	=122	=122	=122	=122	=122	=122	=122	=122
*^	*	*	*	*	*	*	*	*	*	*	*	*	*	*	*	*	*
!	!	!	!	!	!	!LO:DY:a:rj	!	!	!LO:DY:a:rj	!	!	!LO:DY:a:rj	!	!	!LO:DY:a:rj	!	!	!
8AA/Lyy	2AA\yy	(y2ayy 2f/yy	.	4AA/	Pols-	p	4Fn/	Pol-	p	4A\	Pol-	p	4a/	Pol-	p	1ryy	.	.
8D/yy	.	.	.	.	.	.	.	.	.	.	.	.	.	.	.	.	.	.
8F/yy	.	.	.	8AA/	-ka	.	8F/	-ska	.	8A\	-ska	.	8a/	-ska	.	.	.	.
8A/Jyy	.	.	.	8D/	łzę	.	8F/	łzę	.	8A\	łzę	.	8a/	łzę	.	.	.	.
.	.	8qqa/yy	.	.	.	.	.	.	.	.	.	.	.	.	.	.	.	.
8AA/Lyy	2AA\yy	4ffyy 4a\yy	.	4AA/	brat-	.	4A/	brat-	.	4d\	brat-	.	4ff^\	brat-	.	.	.	.
8C#X/yy	.	.	.	.	.	.	.	.	.	.	.	.	.	.	.	.	.	.
8E/yy	.	4eeyy 4g\)yy	.	8AA/	-nią	.	8A/	-nią	.	8c#X\	-nią	.	8ee\	-nią	.	.	.	.
8A/Jyy	.	.	.	8AA/	u-	.	8A/	u-	.	8c#\	u-	.	8ee\	u-	.	.	.	.
=123	=123	=123	=123	=123	=123	=123	=123	=123	=123	=123	=123	=123	=123	=123	=123	=123	=123	=123
*	*	*^	*	*	*	*	*	*	*	*	*	*	*	*	*	*	*	*
!	!	!	!	!LO:DY:rj	!	!	!	!	!	!	!	!	!	!	!	!	!	!	!
2D/yy	8D\Lyy	(y2eeyy 2cc#Xyy 2a/yy	(y2g\yy	sfy	2AA/	-ro-	.	(4A/	-ro-	.	2c#X\	-ro-	.	2ee^\	-ro-	.	1ryy	.	.
.	8G\yy	.	.	.	.	.	.	.	.	.	.	.	.	.	.	.	.	.	.
.	8A\yy	.	.	.	.	.	.	4G/)	.	.	.	.	.	.	.	.	.	.	.
!	!	!	!	!	!	!	!	!	!	!	!	!	!	!LO:TX:a:t=rall. adlib.	!	!	!	!	!
.	8G\Jyy	.	.	.	.	.	.	.	.	.	.	.	.	.	.	.	.	.	.
4ryyyy	4dyy 4D\yy	4ddyy 4a)yy 4f/)yy	4ryyyy	.	4D/	-ni!	.	4F/	-ni!	.	4d\	-ni!	.	4dd\	-ni!	.	.	.	.
8.AALyy 8.AAA/yy	4ryyyy	8.aLyy 8.A/yy	4ryyyy	.	4r	.	.	4r	.	.	4r	.	.	4r	.	.	.	.	.
16AAJkyy 16AAA/yy	.	16aJkyy 16A/yy	.	.	.	.	.	.	.	.	.	.	.	.	.	.	.	.	.
*v	*v	*	*	*	*	*	*	*	*	*	*	*	*	*	*	*	*	*	*
=124	=124	=124	=124	=124	=124	=124	=124	=124	=124	=124	=124	=124	=124	=124	=124	=124	=124	=124
*tremolo	*	*	*	*	*	*	*	*	*	*	*	*	*	*	*	*	*	*
!	!	!	!LO:DY:rj	!	!	!LO:DY:a:rj	!	!	!LO:DY:a:rj	!	!	!LO:DY:a:rj	!	!	!LO:DY:a:rj	!	!	!
32AAA/LLLyy	2ryyyy	2ayy 2eyy 2c#X/yy	ffy	2AA/	Vae	f	2A/	Vae	f	2A\	Vae	f	2a\	Vae	f	1ryy	.	.
32AA/yy	.	.	.	.	.	.	.	.	.	.	.	.	.	.	.	.	.	.
32AAA/yy	.	.	.	.	.	.	.	.	.	.	.	.	.	.	.	.	.	.
32AA/yy	.	.	.	.	.	.	.	.	.	.	.	.	.	.	.	.	.	.
32AAA/yy	.	.	.	.	.	.	.	.	.	.	.	.	.	.	.	.	.	.
32AA/yy	.	.	.	.	.	.	.	.	.	.	.	.	.	.	.	.	.	.
32AAA/yy	.	.	.	.	.	.	.	.	.	.	.	.	.	.	.	.	.	.
32AA/yy	.	.	.	.	.	.	.	.	.	.	.	.	.	.	.	.	.	.
!	!LO:TX:a:t=Rall. Colla voce	!	!	!	!	!	!	!	!	!	!	!	!	!	!	!	!	!
32AAA/yy	.	.	.	.	.	.	.	.	.	.	.	.	.	.	.	.	.	.
32AA/yy	.	.	.	.	.	.	.	.	.	.	.	.	.	.	.	.	.	.
32AAA/yy	.	.	.	.	.	.	.	.	.	.	.	.	.	.	.	.	.	.
32AA/yy	.	.	.	.	.	.	.	.	.	.	.	.	.	.	.	.	.	.
32AAA/yy	.	.	.	.	.	.	.	.	.	.	.	.	.	.	.	.	.	.
32AA/yy	.	.	.	.	.	.	.	.	.	.	.	.	.	.	.	.	.	.
32AAA/yy	.	.	.	.	.	.	.	.	.	.	.	.	.	.	.	.	.	.
32AA/JJJyy	.	.	.	.	.	.	.	.	.	.	.	.	.	.	.	.	.	.
32AAA/LLLyy	4b-X/yy	2gyy 2e\yy	.	2AA/	vic-	.	(4A/	vic-	.	2c#X\	vic-	.	(4aa\	vic-	.	.	.	.
32AA/yy	.	.	.	.	.	.	.	.	.	.	.	.	.	.	.	.	.	.
32AAA/yy	.	.	.	.	.	.	.	.	.	.	.	.	.	.	.	.	.	.
32AA/yy	.	.	.	.	.	.	.	.	.	.	.	.	.	.	.	.	.	.
32AAA/yy	.	.	.	.	.	.	.	.	.	.	.	.	.	.	.	.	.	.
32AA/yy	.	.	.	.	.	.	.	.	.	.	.	.	.	.	.	.	.	.
32AAA/yy	.	.	.	.	.	.	.	.	.	.	.	.	.	.	.	.	.	.
32AA/yy	.	.	.	.	.	.	.	.	.	.	.	.	.	.	.	.	.	.
32AAA/yy	8a/Lyy	.	.	.	.	.	4G/)	.	.	.	.	.	4cc#X\)	.	.	.	.	.
32AA/yy	.	.	.	.	.	.	.	.	.	.	.	.	.	.	.	.	.	.
32AAA/yy	.	.	.	.	.	.	.	.	.	.	.	.	.	.	.	.	.	.
32AA/yy	.	.	.	.	.	.	.	.	.	.	.	.	.	.	.	.	.	.
32AAA/yy	8g/Jyy	.	.	.	.	.	.	.	.	.	.	.	.	.	.	.	.	.
32AA/yy	.	.	.	.	.	.	.	.	.	.	.	.	.	.	.	.	.	.
32AAA/yy	.	.	.	.	.	.	.	.	.	.	.	.	.	.	.	.	.	.
32AA/JJJyy	.	.	.	.	.	.	.	.	.	.	.	.	.	.	.	.	.	.
*	*v	*v	*	*	*	*	*	*	*	*	*	*	*	*	*	*	*	*
=125	=125	=125	=125	=125	=125	=125	=125	=125	=125	=125	=125	=125	=125	=125	=125	=125	=125
32DD/LLLyy	2ddyy 2fyy 2d/yy	.	1D;	-tis!	.	1F;	-tis!	.	1d;	-tis!	.	1dd;	-tis!	.	1ryy	.	.
32D/yy	.	.	.	.	.	.	.	.	.	.	.	.	.	.	.	.	.
32DD/yy	.	.	.	.	.	.	.	.	.	.	.	.	.	.	.	.	.
32D/yy	.	.	.	.	.	.	.	.	.	.	.	.	.	.	.	.	.
32DD/yy	.	.	.	.	.	.	.	.	.	.	.	.	.	.	.	.	.
32D/yy	.	.	.	.	.	.	.	.	.	.	.	.	.	.	.	.	.
32DD/yy	.	.	.	.	.	.	.	.	.	.	.	.	.	.	.	.	.
32D/yy	.	.	.	.	.	.	.	.	.	.	.	.	.	.	.	.	.
32DD/yy	.	.	.	.	.	.	.	.	.	.	.	.	.	.	.	.	.
32D/yy	.	.	.	.	.	.	.	.	.	.	.	.	.	.	.	.	.
32DD/yy	.	.	.	.	.	.	.	.	.	.	.	.	.	.	.	.	.
32D/yy	.	.	.	.	.	.	.	.	.	.	.	.	.	.	.	.	.
32DD/yy	.	.	.	.	.	.	.	.	.	.	.	.	.	.	.	.	.
32D/yy	.	.	.	.	.	.	.	.	.	.	.	.	.	.	.	.	.
32DD/yy	.	.	.	.	.	.	.	.	.	.	.	.	.	.	.	.	.
32D/JJJyy	.	.	.	.	.	.	.	.	.	.	.	.	.	.	.	.	.
32DD/LLLyy	4.ddyy 4.fyy 4.d/yy	.	.	.	.	.	.	.	.	.	.	.	.	.	.	.	.
32D/yy	.	.	.	.	.	.	.	.	.	.	.	.	.	.	.	.	.
32DD/yy	.	.	.	.	.	.	.	.	.	.	.	.	.	.	.	.	.
32D/yy	.	.	.	.	.	.	.	.	.	.	.	.	.	.	.	.	.
32DD/yy	.	.	.	.	.	.	.	.	.	.	.	.	.	.	.	.	.
32D/yy	.	.	.	.	.	.	.	.	.	.	.	.	.	.	.	.	.
32DD/yy	.	.	.	.	.	.	.	.	.	.	.	.	.	.	.	.	.
32D/yy	.	.	.	.	.	.	.	.	.	.	.	.	.	.	.	.	.
32DD/yy	.	.	.	.	.	.	.	.	.	.	.	.	.	.	.	.	.
32D/yy	.	.	.	.	.	.	.	.	.	.	.	.	.	.	.	.	.
32DD/yy	.	.	.	.	.	.	.	.	.	.	.	.	.	.	.	.	.
32D/yy	.	.	.	.	.	.	.	.	.	.	.	.	.	.	.	.	.
32DD/yy	8ddyy 8fyy 8d/yy	.	.	.	.	.	.	.	.	.	.	.	.	.	.	.	.
32D/yy	.	.	.	.	.	.	.	.	.	.	.	.	.	.	.	.	.
32DD/yy	.	.	.	.	.	.	.	.	.	.	.	.	.	.	.	.	.
32D/JJJyy	.	.	.	.	.	.	.	.	.	.	.	.	.	.	.	.	.
*Xtremolo	*	*	*	*	*	*	*	*	*	*	*	*	*	*	*	*	*
=126	=126	=126	=126	=126	=126	=126	=126	=126	=126	=126	=126	=126	=126	=126	=126	=126	=126
!	!	!LO:DY:rj	!	!	!	!	!	!	!	!	!	!	!	!	!	!	!
4Dyy 4DD/yy	4ffyy 4ayy 4f/yy	fy	1ryy	.	.	1ryy	.	.	1ryy	.	.	1ryy	.	.	1ryy	.	.
4Ayy 4AA^\yy	4eeyy 4cc#Xyy 4ayy 4e/yy	.	.	.	.	.	.	.	.	.	.	.	.	.	.	.	.
4B-yy 4BB-^\yy	4ddyy 4fyy 4d/yy	.	.	.	.	.	.	.	.	.	.	.	.	.	.	.	.
4Ayy 4AA^\yy	4ccnyy 4fyy 4c/yy	.	.	.	.	.	.	.	.	.	.	.	.	.	.	.	.
=127	=127	=127	=127	=127	=127	=127	=127	=127	=127	=127	=127	=127	=127	=127	=127	=127	=127
4Gyy 4GG^\yy	4b-yy 4eyy 4c/yy	.	1ryy	.	.	1ryy	.	.	1ryy	.	.	1ryy	.	.	1ryy	.	.
4Fyy 4FF^\yy	4ayy 4fyy 4c/yy	.	.	.	.	.	.	.	.	.	.	.	.	.	.	.	.
4.Eyy 4.EE^>/yy	4.cc#Xyy 4.gyy 4.e/yy	.	.	.	.	.	.	.	.	.	.	.	.	.	.	.	.
8Dyy 8DD^>/yy	8ddyy 8f/yy	.	.	.	.	.	.	.	.	.	.	.	.	.	.	.	.
=128	=128	=128	=128	=128	=128	=128	=128	=128	=128	=128	=128	=128	=128	=128	=128	=128	=128
*	*^	*	*	*	*	*	*	*	*	*	*	*	*	*	*	*	*
2Dyy 2DD/yy	2dd<yy 2a<yy 2f</yy	2ryyyy	.	1ryy	.	.	1ryy	.	.	1ryy	.	.	1ryy	.	.	1ryy	.	.
4.AA/yy	2ryy	4ryyyy	.	.	.	.	.	.	.	.	.	.	.	.	.	.	.	.
.	.	8ryyyy	.	.	.	.	.	.	.	.	.	.	.	.	.	.	.	.
8DD\yy	.	8dyy 8Ayy 8F/yy	.	.	.	.	.	.	.	.	.	.	.	.	.	.	.	.
*	*v	*v	*	*	*	*	*	*	*	*	*	*	*	*	*	*	*	*
=129	=129	=129	=129	=129	=129	=129	=129	=129	=129	=129	=129	=129	=129	=129	=129	=129	=129
2DD;<\yy	2d<yy 2A<yy 2F<;/yy	.	1ryy	.	.	1ryy	.	.	1ryy	.	.	1ryy	.	.	1ryy	.	.
2ryy	2ryyyy	.	.	.	.	.	.	.	.	.	.	.	.	.	.	.	.
==	==	==	==	==	==	==	==	==	==	==	==	==	==	==	==	==	==
*-	*-	*-	*-	*-	*-	*-	*-	*-	*-	*-	*-	*-	*-	*-	*-	*-	*-
!!!system-decoration: s1[(g1)]{(s6,s7)}
!!!RDF**kern: > = above
!!!RDF**kern: < = below
!!!ENC: Andrzej Gręziak
!!!END: 2022-02-10
!!!ENC: Marta Lawrence
!!!END: 2022-02-16
!!!YEC: Copyright 2022 Narodowy Instytut Fryderyka Chopina (https://polishscores.org)
!!!YEM: License CC-BY-4.0 (https://creativecommons.org/licenses/by/4.0)
!!!IIIF: https://polona.pl/iiif/item/NzA4OTI0ODQ/manifest.json
!!!ENC-iiif: Magdalena Agnieszka Krok
!!!END-iiif: 2022-09-02
